;FLAVOR:Marlin
;TIME:1612
;Filament used: 1.66365m
;Layer height: 0.28
;MINX:90.425
;MINY:98.476
;MINZ:0.28
;MAXX:127.673
;MAXY:136.161
;MAXZ:24
;TARGET_MACHINE.NAME:Artillery Hornet
;Generated with Cura_SteamEngine 5.7.1
M140 S60
M105
M190 S60
M104 S205
M105
M109 S205
M82 ;absolute extrusion mode
G28 ; home all axes
 M117 Purge extruder
 G92 E0 ; reset extruder
 G1 Z1.0 F3000 ; move z up little to prevent scratching of surface
 G1 X2 Y20 Z0.3 F5000.0 ; move to start-line position
 G1 X2 Y200.0 Z0.3 F1500.0 E15 ; draw 1st line
 G1 X2 Y200.0 Z0.4 F5000.0 ; move to side a little
 G1 X2 Y20 Z0.4 F1500.0 E30 ; draw 2nd line
 G92 E0 ; reset extruder
 G1 Z1.0 F3000 ; move z up little to prevent scratching of surface
G92 E0
G92 E0
G1 F1500 E-2
;LAYER_COUNT:85
;LAYER:0
M107
G1 F300 Z0.48
G0 F6000 X91.925 Y120.914 Z0.48
;TYPE:SKIRT
G1 F300 Z0.28
G1 F1500 E0
G1 F1200 X92.294 Y120.914 E0.0189
G1 X92.295 Y129.734 E0.47067
G1 X91.926 Y129.734 E0.48957
G1 X91.926 Y128.663 E0.54442
G1 X91.925 Y128.641 E0.54555
G1 X91.886 Y128.246 E0.56588
G1 X91.877 Y128.203 E0.56813
G1 X91.759 Y127.823 E0.58851
G1 X91.742 Y127.782 E0.59079
G1 X91.55 Y127.432 E0.61123
G1 X91.525 Y127.396 E0.61348
G1 X91.265 Y127.088 E0.63412
G1 X91.234 Y127.058 E0.63633
G1 X90.922 Y126.81 E0.65675
G1 X90.89 Y126.789 E0.65871
G1 X90.6 Y126.631 E0.67562
G1 X90.495 Y126.604 E0.68118
G1 X90.425 Y126.604 E0.68476
G1 X90.425 Y124.044 E0.81589
G1 X90.497 Y124.044 E0.81958
G1 X90.597 Y124.02 E0.82484
G1 X90.888 Y123.872 E0.84157
G1 X90.925 Y123.848 E0.84382
G1 X91.238 Y123.598 E0.86434
G1 X91.269 Y123.568 E0.86655
G1 X91.527 Y123.261 E0.88709
G1 X91.552 Y123.224 E0.88938
G1 X91.741 Y122.877 E0.90962
G1 X91.758 Y122.837 E0.91184
G1 X91.877 Y122.453 E0.93244
G1 X91.886 Y122.409 E0.93474
G1 X91.924 Y122.018 E0.95486
G1 X91.925 Y121.997 E0.95594
G1 X91.925 Y120.914 E1.01141
G1 F1500 E-0.98859
G1 F300 Z0.48
G0 F6000 X91.854 Y123.556 Z0.48
G1 F300 Z0.28
G1 F1500 E1.01141
G1 F1200 X91.855 Y127.105 E1.19319
G1 X91.601 Y126.804 E1.21336
G1 X91.508 Y126.713 E1.22003
G1 X91.196 Y126.465 E1.24044
G1 X91.101 Y126.402 E1.24628
G1 X90.865 Y126.273 E1.26006
G1 X90.865 Y124.377 E1.35717
G1 X91.087 Y124.264 E1.36993
G1 X91.2 Y124.192 E1.37679
G1 X91.513 Y123.942 E1.39731
G1 X91.606 Y123.851 E1.40398
G1 X91.854 Y123.556 E1.42372
G0 F6000 X91.414 Y124.574
G1 F1200 X91.415 Y126.085 E1.50111
G1 X91.311 Y126.016 E1.5075
G1 X91.305 Y126.013 E1.50785
G1 X91.305 Y124.644 E1.57797
G1 X91.414 Y124.574 E1.5846
G1 F1500 E-0.4154
G1 F300 Z0.48
;MESH:electronicBox-cableHolder002.stl
G0 F6000 X105.028 Y105.596 Z0.48
;TYPE:WALL-INNER
G1 F300 Z0.28
G1 F1500 E1.5846
G1 F1200 X114.992 Y105.595 E2.09496
G1 X115.588 Y105.559 E2.12555
G1 X116.137 Y105.458 E2.15414
G1 X116.707 Y105.281 E2.18471
G1 X117.238 Y105.045 E2.21447
G1 X117.733 Y104.747 E2.24407
G1 X118.196 Y104.386 E2.27414
G1 X118.606 Y103.982 E2.30362
G1 X118.96 Y103.53 E2.33303
G1 X119.268 Y103.029 E2.36315
G1 X119.511 Y102.496 E2.39316
G1 X119.687 Y101.951 E2.42249
G1 X119.795 Y101.387 E2.4519
G1 X119.835 Y100.794 E2.48235
G1 X119.807 Y100.222 E2.51168
G1 X119.705 Y99.641 E2.5419
G1 X119.487 Y98.916 E2.58067
G1 X117.563 Y98.916 E2.67922
G1 X117.831 Y99.351 E2.70539
G1 X118.042 Y99.892 E2.73513
G1 X118.148 Y100.491 E2.76629
G1 X118.148 Y101.032 E2.794
G1 X118.033 Y101.639 E2.82565
G1 X117.837 Y102.143 E2.85335
G1 X117.512 Y102.671 E2.8851
G1 X117.107 Y103.112 E2.91577
G1 X116.658 Y103.446 E2.94443
G1 X116.172 Y103.692 E2.97233
G1 X115.577 Y103.861 E3.00402
G1 X115.035 Y103.915 E3.03192
G1 X104.941 Y103.913 E3.54894
G1 X104.419 Y103.861 E3.57581
G1 X103.867 Y103.709 E3.60513
G1 X103.343 Y103.446 E3.63516
G1 X102.849 Y103.076 E3.66678
G1 X102.49 Y102.674 E3.69438
G1 X102.166 Y102.165 E3.72529
G1 X101.963 Y101.639 E3.75417
G1 X101.849 Y101.036 E3.7856
G1 X101.848 Y100.492 E3.81346
G1 X101.954 Y99.892 E3.84467
G1 X102.167 Y99.346 E3.87469
G1 X102.437 Y98.917 E3.90065
G1 X100.508 Y98.916 E3.99946
G1 X100.292 Y99.641 E4.03821
G1 X100.189 Y100.222 E4.06843
G1 X100.161 Y100.792 E4.09766
G1 X100.204 Y101.387 E4.12822
G1 X100.31 Y101.953 E4.15771
G1 X100.485 Y102.496 E4.18693
G1 X100.728 Y103.029 E4.21694
G1 X101.035 Y103.529 E4.24699
G1 X101.392 Y103.982 E4.27653
G1 X101.805 Y104.387 E4.30616
G1 X102.264 Y104.747 E4.33604
G1 X102.758 Y105.045 E4.36559
G1 X103.288 Y105.281 E4.39531
G1 X103.863 Y105.458 E4.42612
G1 X104.408 Y105.559 E4.45451
G1 X105.028 Y105.596 E4.48632
G1 F1500 E2.48632
G1 F300 Z0.48
G0 F6000 X114.981 Y106.036 Z0.48
;TYPE:WALL-OUTER
G1 F300 Z0.28
G1 F1500 E4.48632
G1 F1200 X115.641 Y105.997 E4.52019
G1 X116.243 Y105.886 E4.55154
G1 X116.862 Y105.693 E4.58475
G1 X117.442 Y105.436 E4.61725
G1 X117.983 Y105.11 E4.6496
G1 X118.486 Y104.718 E4.68226
G1 X118.935 Y104.276 E4.71454
G1 X119.322 Y103.782 E4.74668
G1 X119.657 Y103.236 E4.77949
G1 X119.922 Y102.656 E4.81215
G1 X120.114 Y102.061 E4.84418
G1 X120.233 Y101.443 E4.87641
G1 X120.275 Y100.798 E4.90952
G1 X120.245 Y100.173 E4.94157
G1 X120.133 Y99.539 E4.97455
G1 X119.953 Y98.936 E5.00678
G1 X119.752 Y98.476 E5.03249
G1 X116.475 Y98.476 E5.20034
G1 X116.848 Y98.76 E5.22435
G1 X117.18 Y99.132 E5.24989
G1 X117.442 Y99.564 E5.27577
G1 X117.621 Y100.035 E5.30158
G1 X117.706 Y100.493 E5.32544
G1 X117.708 Y101.003 E5.35156
G1 X117.62 Y101.482 E5.37651
G1 X117.437 Y101.96 E5.40272
G1 X117.156 Y102.412 E5.42998
G1 X116.82 Y102.778 E5.45543
G1 X116.43 Y103.069 E5.48036
G1 X115.994 Y103.29 E5.50539
G1 X115.497 Y103.429 E5.53183
G1 X115.009 Y103.476 E5.55694
G1 X104.983 Y103.475 E6.07048
G1 X104.499 Y103.429 E6.09538
G1 X103.992 Y103.285 E6.12238
G1 X103.57 Y103.069 E6.14666
G1 X103.157 Y102.762 E6.17302
G1 X102.835 Y102.401 E6.19779
G1 X102.57 Y101.981 E6.22323
G1 X102.382 Y101.504 E6.24949
G1 X102.288 Y101.004 E6.27555
G1 X102.291 Y100.483 E6.30224
G1 X102.386 Y99.996 E6.32765
G1 X102.573 Y99.527 E6.35351
G1 X102.821 Y99.131 E6.37745
G1 X103.18 Y98.731 E6.40498
G1 X103.521 Y98.476 E6.42679
G1 X100.244 Y98.476 E6.59464
G1 X100.043 Y98.936 E6.62035
G1 X99.863 Y99.539 E6.65258
G1 X99.751 Y100.173 E6.68556
G1 X99.721 Y100.797 E6.71756
G1 X99.767 Y101.443 E6.75073
G1 X99.882 Y102.061 E6.78293
G1 X100.074 Y102.656 E6.81495
G1 X100.339 Y103.236 E6.84761
G1 X100.673 Y103.781 E6.88035
G1 X101.064 Y104.276 E6.91266
G1 X101.514 Y104.718 E6.94497
G1 X102.014 Y105.11 E6.97751
G1 X102.554 Y105.436 E7.00982
G1 X103.134 Y105.693 E7.04232
G1 X103.757 Y105.886 E7.07572
G1 X104.355 Y105.997 E7.10687
G1 X105.015 Y106.036 E7.14074
G1 X114.981 Y106.036 E7.6512
G1 F1500 E5.6512
G1 F300 Z0.48
G0 F6000 X105.047 Y105.2 Z0.48
;TYPE:SKIN
G1 F300 Z0.28
G1 F1500 E7.6512
G1 F1200 X104.448 Y105.16 E7.68195
G1 X103.969 Y105.073 E7.70689
G1 X103.422 Y104.906 E7.73618
G1 X102.931 Y104.685 E7.76376
G1 X102.497 Y104.422 E7.78976
G1 X102.07 Y104.089 E7.81749
G1 X101.677 Y103.705 E7.84564
G1 X101.362 Y103.302 E7.87184
G1 X101.075 Y102.835 E7.89991
G1 X100.853 Y102.356 E7.92695
G1 X100.69 Y101.85 E7.95418
G1 X100.599 Y101.348 E7.98031
G1 X100.557 Y100.781 E8.00944
G1 X100.584 Y100.257 E8.03631
G1 X100.675 Y99.739 E8.06325
G1 X100.804 Y99.312 E8.0861
G1 X101.754 Y99.313 E8.13476
G1 X101.578 Y99.768 E8.15974
G1 X101.455 Y100.39 E8.19222
G1 X101.452 Y101.069 E8.227
G1 X101.57 Y101.724 E8.26109
G1 X101.806 Y102.336 E8.29469
G1 X102.162 Y102.899 E8.3288
G1 X102.594 Y103.386 E8.36215
G1 X103.134 Y103.785 E8.39654
G1 X103.722 Y104.084 E8.43033
G1 X104.362 Y104.252 E8.46422
G1 X104.93 Y104.308 E8.49345
G1 X115.058 Y104.308 E9.01222
G1 X115.63 Y104.252 E9.04165
G1 X116.274 Y104.078 E9.07582
G1 X116.851 Y103.789 E9.10888
G1 X117.399 Y103.386 E9.14372
G1 X117.822 Y102.917 E9.17607
G1 X118.171 Y102.366 E9.20948
G1 X118.423 Y101.736 E9.24423
G1 X118.545 Y101.058 E9.27952
G1 X118.537 Y100.387 E9.31389
G1 X118.425 Y99.794 E9.3448
G1 X118.239 Y99.312 E9.37126
G1 X119.188 Y99.312 E9.41987
G1 X119.317 Y99.74 E9.44277
G1 X119.409 Y100.257 E9.46966
G1 X119.436 Y100.786 E9.49679
G1 X119.4 Y101.34 E9.52523
G1 X119.302 Y101.848 E9.55173
G1 X119.138 Y102.356 E9.57907
G1 X118.921 Y102.832 E9.60587
G1 X118.634 Y103.302 E9.63407
G1 X118.311 Y103.712 E9.66081
G1 X117.922 Y104.094 E9.68874
G1 X117.527 Y104.403 E9.71442
G1 X117.061 Y104.688 E9.7424
G1 X116.554 Y104.913 E9.77081
G1 X116.02 Y105.075 E9.7994
G1 X115.545 Y105.161 E9.82412
G1 X114.973 Y105.195 E9.85347
G1 X105.047 Y105.2 E10.36189
G1 F1500 E8.36189
G1 F300 Z0.48
G0 F6000 X101.081 Y102.325 Z0.48
G1 F300 Z0.28
G1 F1500 E10.36189
G1 F1200 X103.419 Y104.664 E10.53128
G0 F6000 X103.672 Y104.294
G1 F1200 X104.284 Y104.906 E10.57561
G0 F6000 X104.486 Y104.486
G1 F1200 X104.974 Y104.974 E10.61096
G0 F6000 X105.15 Y104.528
G1 F1200 X105.601 Y104.979 E10.64363
G0 F6000 X105.773 Y104.528
G1 F1200 X106.224 Y104.979 E10.6763
G0 F6000 X106.395 Y104.528
G1 F1200 X106.845 Y104.978 E10.7089
G0 F6000 X107.017 Y104.528
G1 F1200 X107.468 Y104.978 E10.74153
G0 F6000 X107.639 Y104.528
G1 F1200 X108.09 Y104.978 E10.77416
G0 F6000 X108.262 Y104.528
G1 F1200 X108.711 Y104.978 E10.80672
G0 F6000 X108.884 Y104.528
G1 F1200 X109.334 Y104.978 E10.83932
G0 F6000 X109.506 Y104.528
G1 F1200 X109.956 Y104.978 E10.87191
G0 F6000 X110.128 Y104.528
G1 F1200 X110.577 Y104.977 E10.90444
G0 F6000 X110.751 Y104.528
G1 F1200 X111.2 Y104.977 E10.93696
G0 F6000 X111.373 Y104.528
G1 F1200 X111.821 Y104.976 E10.96941
G0 F6000 X111.995 Y104.528
G1 F1200 X112.443 Y104.976 E11.00187
G0 F6000 X112.617 Y104.528
G1 F1200 X113.066 Y104.976 E11.03435
G0 F6000 X113.24 Y104.528
G1 F1200 X113.687 Y104.976 E11.06677
G0 F6000 X113.862 Y104.528
G1 F1200 X114.309 Y104.976 E11.09919
G0 F6000 X114.484 Y104.528
G1 F1200 X114.932 Y104.976 E11.13164
G0 F6000 X115.104 Y104.525
G1 F1200 X115.519 Y104.941 E11.16173
G0 F6000 X115.668 Y104.467
G1 F1200 X116.041 Y104.841 E11.18879
G0 F6000 X116.514 Y104.691
G1 F1200 X116.161 Y104.339 E11.21432
G0 F6000 X116.602 Y104.157
G1 F1200 X116.944 Y104.499 E11.2391
G0 F6000 X117.333 Y104.266
G1 F1200 X117.014 Y103.947 E11.2622
G0 F6000 X117.37 Y103.68
G1 F1200 X117.687 Y103.997 E11.28517
G0 F6000 X118.01 Y103.699
G1 F1200 X117.696 Y103.384 E11.30795
G0 F6000 X117.991 Y103.057
G1 F1200 X118.303 Y103.368 E11.33051
G0 F6000 X118.559 Y103.003
G1 F1200 X118.234 Y102.678 E11.35405
G0 F6000 X118.449 Y102.27
G1 F1200 X118.783 Y102.605 E11.37828
G0 F6000 X118.968 Y102.167
G1 F1200 X118.624 Y101.823 E11.4032
G0 F6000 X119.109 Y101.685
G1 F1200 X118.723 Y101.3 E11.43113
G0 F6000 X119.192 Y101.147
G1 F1200 X118.761 Y100.716 E11.46235
G0 F6000 X119.204 Y100.536
G1 F1200 X118.689 Y100.022 E11.49962
G0 F6000 X119.108 Y99.818
G1 F1200 X118.822 Y99.532 E11.52033
G1 F1500 E9.52033
G1 F300 Z0.48
G0 F6000 X101.482 Y102.104 Z0.48
G1 F300 Z0.28
G1 F1500 E11.52033
G1 F1200 X100.843 Y101.465 E11.56662
G0 F6000 X101.266 Y101.266
G1 F1200 X100.778 Y100.778 E11.60197
G0 F6000 X101.233 Y100.611
G1 F1200 X100.818 Y100.196 E11.63203
G0 F6000 X101.298 Y100.053
G1 F1200 X100.923 Y99.678 E11.65919
G1 F1500 E9.65919
G1 F300 Z0.48
;MESH:electronicBox-cableHolder1.stl
G0 F6000 X105.029 Y118.588 Z0.48
;TYPE:WALL-INNER
G1 F300 Z0.28
G1 F1500 E11.65919
G1 F1200 X114.992 Y118.587 E12.16951
G1 X115.609 Y118.547 E12.20118
G1 X116.2 Y118.435 E12.23199
G1 X116.787 Y118.245 E12.26359
G1 X117.328 Y117.989 E12.29424
G1 X117.84 Y117.664 E12.32531
G1 X118.311 Y117.277 E12.35653
G1 X118.721 Y116.839 E12.38726
G1 X119.085 Y116.338 E12.41898
G1 X119.381 Y115.797 E12.45057
G1 X119.598 Y115.252 E12.48061
G1 X119.75 Y114.656 E12.51212
G1 X119.828 Y114.046 E12.54362
G1 X119.828 Y113.45 E12.57414
G1 X119.75 Y112.84 E12.60564
G1 X119.599 Y112.248 E12.63694
G1 X119.381 Y111.698 E12.66724
G1 X119.085 Y111.159 E12.69874
G1 X118.722 Y110.658 E12.73043
G1 X118.311 Y110.223 E12.76108
G1 X117.838 Y109.831 E12.79255
G1 X117.328 Y109.508 E12.82347
G1 X116.788 Y109.252 E12.85408
G1 X116.199 Y109.061 E12.88579
G1 X115.609 Y108.949 E12.91655
G1 X114.967 Y108.908 E12.9495
G1 X105.029 Y108.908 E13.45853
G1 X104.387 Y108.948 E13.49148
G1 X103.797 Y109.061 E13.52225
G1 X103.208 Y109.252 E13.55396
G1 X102.668 Y109.508 E13.58457
G1 X102.158 Y109.831 E13.6155
G1 X101.685 Y110.223 E13.64696
G1 X101.274 Y110.658 E13.67761
G1 X100.911 Y111.158 E13.70926
G1 X100.615 Y111.698 E13.7408
G1 X100.398 Y112.249 E13.77114
G1 X100.246 Y112.84 E13.80239
G1 X100.168 Y113.45 E13.83389
G1 X100.168 Y114.046 E13.86442
G1 X100.246 Y114.656 E13.89592
G1 X100.398 Y115.252 E13.92742
G1 X100.615 Y115.797 E13.95747
G1 X100.911 Y116.338 E13.98906
G1 X101.275 Y116.839 E14.02078
G1 X101.684 Y117.277 E14.05147
G1 X102.156 Y117.664 E14.08274
G1 X102.668 Y117.988 E14.11377
G1 X103.209 Y118.244 E14.14443
G1 X103.796 Y118.434 E14.17603
G1 X104.387 Y118.548 E14.20686
G1 X105.029 Y118.588 E14.23981
G1 F1500 E12.23981
G1 F300 Z0.48
G0 F6000 X115.038 Y116.907 Z0.48
G1 F300 Z0.28
G1 F1500 E14.23981
G1 F1200 X104.941 Y116.905 E14.75698
G1 X104.416 Y116.853 E14.784
G1 X103.849 Y116.698 E14.81411
G1 X103.33 Y116.434 E14.84393
G1 X102.862 Y116.084 E14.87387
G1 X102.474 Y115.648 E14.90376
G1 X102.162 Y115.147 E14.93399
G1 X101.952 Y114.592 E14.96439
G1 X101.853 Y114.064 E14.9919
G1 X101.853 Y113.433 E15.02422
G1 X101.952 Y112.904 E15.05179
G1 X102.168 Y112.337 E15.08287
G1 X102.473 Y111.852 E15.11221
G1 X102.847 Y111.43 E15.1411
G1 X103.33 Y111.062 E15.1722
G1 X103.839 Y110.81 E15.20129
G1 X104.416 Y110.643 E15.23206
G1 X104.962 Y110.589 E15.26016
G1 X115.06 Y110.591 E15.77739
G1 X115.58 Y110.643 E15.80415
G1 X116.112 Y110.79 E15.83242
G1 X116.666 Y111.062 E15.86404
G1 X117.106 Y111.391 E15.89218
G1 X117.524 Y111.842 E15.92367
G1 X117.815 Y112.317 E15.95221
G1 X118.044 Y112.904 E15.98448
G1 X118.143 Y113.432 E16.01199
G1 X118.144 Y114.064 E16.04437
G1 X118.045 Y114.591 E16.07183
G1 X117.816 Y115.178 E16.1041
G1 X117.527 Y115.648 E16.13237
G1 X117.148 Y116.067 E16.1613
G1 X116.666 Y116.434 E16.19233
G1 X116.16 Y116.691 E16.2214
G1 X115.581 Y116.853 E16.2522
G1 X115.038 Y116.907 E16.28015
G0 F6000 X115.01 Y116.468
;TYPE:WALL-OUTER
G1 F1200 X104.983 Y116.467 E16.79374
G1 X104.481 Y116.417 E16.81958
G1 X104.024 Y116.29 E16.84387
G1 X103.551 Y116.052 E16.87099
G1 X103.172 Y115.767 E16.89528
G1 X102.844 Y115.408 E16.92019
G1 X102.554 Y114.94 E16.94839
G1 X102.378 Y114.483 E16.97347
G1 X102.289 Y114.008 E16.99823
G1 X102.289 Y113.488 E17.02486
G1 X102.378 Y113.013 E17.04962
G1 X102.557 Y112.55 E17.07504
G1 X102.829 Y112.11 E17.10154
G1 X103.157 Y111.743 E17.12675
G1 X103.566 Y111.434 E17.153
G1 X104.007 Y111.216 E17.1782
G1 X104.498 Y111.075 E17.20437
G1 X104.99 Y111.028 E17.22968
G1 X115.018 Y111.029 E17.74332
G1 X115.498 Y111.075 E17.76802
G1 X115.976 Y111.21 E17.79346
G1 X116.41 Y111.422 E17.8182
G1 X116.825 Y111.73 E17.84467
G1 X117.18 Y112.124 E17.87184
G1 X117.442 Y112.556 E17.89772
G1 X117.618 Y113.013 E17.9228
G1 X117.707 Y113.488 E17.94755
G1 X117.707 Y114.008 E17.97419
G1 X117.618 Y114.483 E17.99894
G1 X117.43 Y114.966 E18.02549
G1 X117.171 Y115.39 E18.05094
G1 X116.839 Y115.753 E18.07614
G1 X116.412 Y116.073 E18.10347
G1 X115.992 Y116.284 E18.12754
G1 X115.498 Y116.421 E18.1538
G1 X115.01 Y116.468 E18.17891
G1 F1500 E16.17891
G1 F300 Z0.48
G0 F6000 X114.981 Y119.028 Z0.48
G1 F300 Z0.28
G1 F1500 E18.17891
G1 F1200 X115.664 Y118.985 E18.21396
G1 X116.309 Y118.862 E18.2476
G1 X116.95 Y118.655 E18.2821
G1 X117.541 Y118.375 E18.3156
G1 X118.098 Y118.021 E18.3494
G1 X118.613 Y117.599 E18.3835
G1 X119.061 Y117.119 E18.41713
G1 X119.457 Y116.574 E18.45164
G1 X119.78 Y115.985 E18.48605
G1 X120.018 Y115.388 E18.51897
G1 X120.183 Y114.738 E18.55332
G1 X120.268 Y114.074 E18.5876
G1 X120.268 Y113.422 E18.621
G1 X120.183 Y112.758 E18.65529
G1 X120.018 Y112.112 E18.68944
G1 X119.78 Y111.51 E18.7226
G1 X119.457 Y110.923 E18.75691
G1 X119.062 Y110.377 E18.79143
G1 X118.613 Y109.901 E18.82495
G1 X118.098 Y109.475 E18.85918
G1 X117.541 Y109.122 E18.89296
G1 X116.95 Y108.842 E18.92645
G1 X116.309 Y108.634 E18.96097
G1 X115.664 Y108.511 E18.9946
G1 X114.981 Y108.468 E19.02966
G1 X105.015 Y108.468 E19.54012
G1 X104.332 Y108.511 E19.57517
G1 X103.687 Y108.634 E19.60881
G1 X103.046 Y108.842 E19.64333
G1 X102.455 Y109.122 E19.67682
