;FLAVOR:Marlin
;TIME:1396
;Filament used: 1.37245m
;Layer height: 0.28
;MINX:98.395
;MINY:99.603
;MINZ:0.28
;MAXX:121.592
;MAXY:127.313
;MAXZ:22.6
;TARGET_MACHINE.NAME:Artillery Hornet
;Generated with Cura_SteamEngine 5.7.1
M140 S60
M105
M190 S60
M104 S205
M105
M109 S205
M82 ;absolute extrusion mode
G28 ; home all axes
 M117 Purge extruder
 G92 E0 ; reset extruder
 G1 Z1.0 F3000 ; move z up little to prevent scratching of surface
 G1 X2 Y20 Z0.3 F5000.0 ; move to start-line position
 G1 X2 Y200.0 Z0.3 F1500.0 E15 ; draw 1st line
 G1 X2 Y200.0 Z0.4 F5000.0 ; move to side a little
 G1 X2 Y20 Z0.4 F1500.0 E30 ; draw 2nd line
 G92 E0 ; reset extruder
 G1 Z1.0 F3000 ; move z up little to prevent scratching of surface
G92 E0
G92 E0
G1 F1500 E-2
;LAYER_COUNT:80
;LAYER:0
M107
G1 F300 Z0.48
G0 F6000 X99.854 Y100.491 Z0.48
;TYPE:SKIRT
G1 F300 Z0.28
G1 F1500 E0
G1 F1200 X100.672 Y99.973 E0.04959
G1 X101.533 Y99.682 E0.09614
G1 X102.376 Y99.603 E0.13951
G1 X117.852 Y99.617 E0.9322
G1 X118.479 Y99.686 E0.96451
G1 X119.33 Y99.973 E1.01051
G1 X120.146 Y100.488 E1.05994
G1 X120.772 Y101.124 E1.10565
G1 X121.231 Y101.877 E1.15082
G1 X121.51 Y102.675 E1.19412
G1 X121.592 Y103.343 E1.22859
G1 X121.592 Y123.568 E2.26453
G1 X121.509 Y124.244 E2.29941
G1 X121.228 Y125.045 E2.34289
G1 X120.732 Y125.838 E2.3908
G1 X120.132 Y126.438 E2.43426
G1 X119.326 Y126.945 E2.48303
G1 X118.463 Y127.234 E2.52965
G1 X117.624 Y127.313 E2.57281
G1 X102.148 Y127.299 E3.3655
G1 X101.522 Y127.23 E3.39776
G1 X100.674 Y126.945 E3.44358
G1 X99.868 Y126.438 E3.49236
G1 X99.264 Y125.834 E3.53611
G1 X98.765 Y125.039 E3.58419
G1 X98.474 Y124.168 E3.63122
G1 X98.395 Y123.334 E3.67413
G1 X98.409 Y103.34 E4.69824
G1 X98.492 Y102.656 E4.73353
G1 X98.793 Y101.825 E4.7788
G1 X99.237 Y101.117 E4.8216
G1 X99.854 Y100.491 E4.86663
G0 F6000 X100.134 Y100.834
G1 F1200 X100.862 Y100.373 E4.91076
G1 X101.626 Y100.115 E4.95207
G1 X102.376 Y100.043 E4.99066
G1 X117.804 Y100.054 E5.78089
G1 X118.382 Y100.118 E5.81068
G1 X119.139 Y100.373 E5.85159
G1 X119.866 Y100.832 E5.89563
G1 X120.423 Y101.398 E5.9363
G1 X120.832 Y102.069 E5.97655
G1 X121.078 Y102.772 E6.0147
G1 X121.155 Y103.397 E6.04696
G1 X121.155 Y123.515 E7.07741
G1 X121.078 Y124.144 E7.10987
G1 X120.829 Y124.854 E7.14841
G1 X120.386 Y125.562 E7.19119
G1 X119.855 Y126.093 E7.22965
G1 X119.138 Y126.544 E7.27304
G1 X118.372 Y126.801 E7.31442
G1 X117.624 Y126.873 E7.35291
G1 X102.196 Y126.862 E8.14314
G1 X101.618 Y126.798 E8.17293
G1 X100.862 Y126.544 E8.21378
G1 X100.145 Y126.093 E8.25717
G1 X99.612 Y125.56 E8.29578
G1 X99.165 Y124.848 E8.33884
G1 X98.907 Y124.077 E8.38048
G1 X98.835 Y123.334 E8.41872
G1 X98.846 Y103.393 E9.44011
G1 X98.923 Y102.759 E9.47282
G1 X99.191 Y102.019 E9.51313
G1 X99.584 Y101.393 E9.55099
G1 X100.134 Y100.834 E9.59116
G0 F6000 X100.414 Y101.177
G1 F1200 X101.052 Y100.773 E9.62984
G1 X101.719 Y100.548 E9.66589
G1 X102.376 Y100.483 E9.69971
G1 X117.755 Y100.491 E10.48743
G1 X118.286 Y100.55 E10.5148
G1 X118.948 Y100.773 E10.55058
G1 X119.586 Y101.176 E10.58923
G1 X120.074 Y101.672 E10.62487
G1 X120.433 Y102.261 E10.6602
G1 X120.646 Y102.869 E10.6932
G1 X120.718 Y103.451 E10.72323
G1 X120.718 Y123.462 E11.74821
G1 X120.647 Y124.045 E11.77829
G1 X120.43 Y124.663 E11.81184
G1 X120.04 Y125.286 E11.84949
G1 X119.578 Y125.748 E11.88295
G1 X118.95 Y126.143 E11.92096
G1 X118.281 Y126.368 E11.95711
G1 X117.624 Y126.433 E11.99092
G1 X102.245 Y126.425 E12.77865
G1 X101.714 Y126.366 E12.80601
G1 X101.05 Y126.143 E12.84189
G1 X100.422 Y125.748 E12.87989
G1 X99.96 Y125.286 E12.91335
G1 X99.565 Y124.657 E12.9514
G1 X99.34 Y123.986 E12.98765
G1 X99.275 Y123.334 E13.02121
G1 X99.283 Y103.446 E14.03989
G1 X99.354 Y102.862 E14.07002
G1 X99.589 Y102.213 E14.10537
G1 X99.931 Y101.668 E14.13833
G1 X100.414 Y101.177 E14.17361
G0 F6000 X100.971 Y101.865
G1 F1200 X101.434 Y101.573 E14.20164
G1 X101.906 Y101.414 E14.22716
G1 X102.376 Y101.363 E14.25137
G1 X117.657 Y101.365 E15.03407
G1 X118.094 Y101.414 E15.0566
G1 X118.566 Y101.573 E15.08211
G1 X119.029 Y101.865 E15.11014
G1 X119.375 Y102.217 E15.13543
G1 X119.635 Y102.643 E15.16099
G1 X119.784 Y103.068 E15.18406
G1 X119.844 Y103.558 E15.20934
G1 X119.844 Y123.356 E16.22341
G1 X119.784 Y123.848 E16.2488
G1 X119.635 Y124.274 E16.27191
G1 X119.344 Y124.738 E16.29997
G1 X119.03 Y125.052 E16.32271
G1 X118.566 Y125.343 E16.35076
G1 X118.094 Y125.502 E16.37627
G1 X117.624 Y125.553 E16.40049
G1 X102.343 Y125.551 E17.18319
G1 X101.906 Y125.502 E17.20572
G1 X101.434 Y125.343 E17.23123
G1 X100.97 Y125.052 E17.25928
G1 X100.656 Y124.738 E17.28203
G1 X100.365 Y124.274 E17.31008
G1 X100.205 Y123.799 E17.33575
G1 X100.155 Y123.334 E17.35971
G1 X100.157 Y103.552 E18.37295
G1 X100.216 Y103.068 E18.39793
G1 X100.386 Y102.599 E18.42348
G1 X100.625 Y102.217 E18.44656
G1 X100.971 Y101.865 E18.47184
G0 F6000 X100.694 Y101.52
G1 F1200 X101.243 Y101.173 E18.50511
G1 X101.81 Y100.982 E18.53575
G1 X102.376 Y100.923 E18.5649
G1 X117.706 Y100.928 E19.35011
G1 X118.19 Y100.982 E19.37506
G1 X118.757 Y101.173 E19.4057
G1 X119.306 Y101.52 E19.43897
G1 X119.725 Y101.946 E19.46957
G1 X120.034 Y102.452 E19.49994
G1 X120.215 Y102.968 E19.52795
G1 X120.281 Y103.505 E19.55566
G1 X120.281 Y123.409 E20.57516
G1 X120.216 Y123.946 E20.60287
G1 X120.032 Y124.469 E20.63126
G1 X119.692 Y125.012 E20.66408
G1 X119.304 Y125.4 E20.69218
G1 X118.758 Y125.743 E20.72521
G1 X118.19 Y125.934 E20.7559
G1 X117.624 Y125.993 E20.78505
G1 X102.294 Y125.988 E21.57026
G1 X101.81 Y125.934 E21.59521
G1 X101.242 Y125.743 E21.6259
G1 X100.696 Y125.4 E21.65893
G1 X100.308 Y125.012 E21.68704
G1 X99.965 Y124.466 E21.72006
G1 X99.773 Y123.895 E21.75092
G1 X99.715 Y123.334 E21.77981
G1 X99.72 Y103.499 E22.79577
G1 X99.785 Y102.965 E22.82332
G1 X99.987 Y102.407 E22.85372
G1 X100.278 Y101.943 E22.88177
G1 X100.694 Y101.52 E22.91216
G1 F1500 E20.91216
G1 F300 Z0.48
G0 F6000 X102.975 Y104.183 Z0.48
;TYPE:SUPPORT-INTERFACE
G1 F300 Z0.28
G1 F1500 E22.91216
G1 F1200 X115.345 Y104.183 E23.54576
G1 X115.345 Y122.733 E24.4959
G1 X102.975 Y122.733 E25.1295
G1 X102.975 Y104.183 E26.07964
G0 F6000 X104.403 Y104.403
G1 F1200 X115.125 Y115.125 E26.85631
G0 F6000 X115.125 Y116.354
G1 F1200 X108.965 Y122.513 E27.30249
G0 F6000 X107.579 Y122.513
G1 F1200 X103.195 Y118.129 E27.62005
G0 F6000 X103.195 Y117.083
G1 F1200 X115.125 Y105.153 E28.48422
G1 F1500 E26.48422
G1 F300 Z0.48
G0 F6000 X115.125 Y107.658 Z0.48
G1 F300 Z0.28
G1 F1500 E28.48422
G1 F1200 X111.87 Y104.403 E28.72
G0 F6000 X112.141 Y104.403
G1 F1200 X103.195 Y113.349 E29.36802
G0 F6000 X103.195 Y114.396
G1 F1200 X111.312 Y122.513 E29.95599
G0 F6000 X112.699 Y122.513
G1 F1200 X115.125 Y120.087 E30.13172
G0 F6000 X115.125 Y118.859
G1 F1200 X103.195 Y106.929 E30.9959
G0 F6000 X103.195 Y105.882
G1 F1200 X104.674 Y104.403 E31.10303
G1 F1500 E29.10303
G1 F300 Z0.48
G0 F6000 X108.136 Y104.403 Z0.48
G1 F300 Z0.28
G1 F1500 E31.10303
G1 F1200 X115.125 Y111.392 E31.60929
G0 F6000 X115.125 Y112.62
G1 F1200 X105.232 Y122.513 E32.32591
G0 F6000 X103.845 Y122.513
G1 F1200 X103.195 Y121.863 E32.37299
G0 F6000 X103.195 Y120.816
G1 F1200 X115.125 Y108.887 E33.23713
G1 F1500 E31.23713
G1 F300 Z0.48
G0 F6000 X108.408 Y104.403 Z0.48
G1 F300 Z0.28
G1 F1500 E33.23713
G1 F1200 X103.195 Y109.616 E33.61474
G0 F6000 X103.195 Y110.662
G1 F1200 X115.046 Y122.513 E34.47319
G1 F1500 E32.47319
G1 F300 Z0.48
;MESH:mpuHeadAttachment-Body.stl
G0 F6000 X117.58 Y124.582 Z0.48
;TYPE:WALL-INNER
G1 F300 Z0.28
G1 F1500 E34.47319
G1 F878.5 X117.903 Y124.563 E34.49583
G1 F986.9 X118.194 Y124.512 E34.51423
G1 F1168.1 X118.461 Y124.386 E34.52976
G1 F1269.2 X118.678 Y124.169 E34.54463
G1 F1170.7 X118.804 Y123.902 E34.56013
G1 F988.8 X118.855 Y123.611 E34.57849
G1 F878.5 X118.874 Y123.288 E34.60113
G1 F851.6 X118.874 Y103.624 E36.02037
G1 F877.1 X118.855 Y103.305 E36.04276
G1 F985.1 X118.804 Y103.013 E36.06126
G1 F1183.9 X118.649 Y102.706 E36.07911
G1 F1291 X118.462 Y102.528 E36.09141
G1 F1173.3 X118.191 Y102.399 E36.10713
G1 F990.6 X117.906 Y102.349 E36.12508
G1 F882.9 X117.591 Y102.332 E36.14704
G1 F855.8 X102.416 Y102.33 E37.23699
G1 F878.5 X102.096 Y102.349 E37.25942
G1 F986.9 X101.804 Y102.4 E37.27788
G1 F1173.3 X101.534 Y102.528 E37.29353
G1 F1275.4 X101.321 Y102.74 E37.30801
G1 F1173.3 X101.192 Y103.013 E37.32383
G1 F988.8 X101.141 Y103.303 E37.34214
G1 F881.5 X101.124 Y103.614 E37.36385
G1 F854.4 X101.122 Y123.288 E38.77923
G1 F878.5 X101.141 Y123.611 E38.80187
G1 F986.9 X101.192 Y123.902 E38.82027
G1 F1168.1 X101.318 Y124.169 E38.83581
G1 F1266.2 X101.533 Y124.385 E38.8506
G1 F1168.1 X101.804 Y124.512 E38.86635
G1 F988.8 X102.098 Y124.563 E38.8849
G1 F878.5 X102.409 Y124.582 E38.90669
G1 F851.6 X117.58 Y124.582 E40.00165
G0 F6000 X117.611 Y125.112
;TYPE:WALL-OUTER
G1 F1200 X118.018 Y125.064 E40.02265
G1 X118.396 Y124.932 E40.04315
G1 X118.729 Y124.722 E40.06332
G1 X119.014 Y124.437 E40.08396
G1 X119.224 Y124.104 E40.10413
G1 X119.356 Y123.726 E40.12464
G1 X119.404 Y123.319 E40.14563
G1 X119.404 Y103.593 E41.156
G1 X119.356 Y103.19 E41.17679
G1 X119.224 Y102.812 E41.1973
G1 X119.011 Y102.471 E41.21789
G1 X118.729 Y102.193 E41.23818
G1 X118.395 Y101.98 E41.25847
G1 X118.019 Y101.849 E41.27886
G1 X117.619 Y101.804 E41.29948
G1 X102.385 Y101.801 E42.07977
G1 X101.982 Y101.848 E42.10056
G1 X101.601 Y101.98 E42.12121
G1 X101.267 Y102.193 E42.1415
G1 X100.986 Y102.471 E42.16175
G1 X100.772 Y102.812 E42.18237
G1 X100.64 Y103.19 E42.20287
G1 X100.596 Y103.585 E42.22323
G1 X100.592 Y123.319 E43.23402
G1 X100.64 Y123.726 E43.25501
G1 X100.772 Y124.104 E43.27552
G1 X100.982 Y124.437 E43.29568
G1 X101.266 Y124.722 E43.31629
G1 X101.604 Y124.932 E43.33667
G1 X101.982 Y125.064 E43.35718
G1 X102.378 Y125.112 E43.37761
G1 X117.611 Y125.112 E44.15786
G1 F1500 E42.15786
G1 F300 Z0.48
G0 F6000 X101.807 Y124.052 Z0.48
G1 F300 Z0.28
G1 F1500 E44.15786
G1 F1200 X101.683 Y123.947 E44.16618
G1 X101.653 Y123.855 E44.17114
G1 X101.652 Y103.016 E45.23852
G1 X101.757 Y102.892 E45.24684
G1 X101.85 Y102.86 E45.25188
G1 X118.146 Y102.86 E46.08657
G1 X118.304 Y102.951 E46.09591
G1 X118.343 Y103.058 E46.10175
G1 X118.344 Y123.855 E47.16698
G1 X118.313 Y123.947 E47.17195
G1 X118.192 Y124.051 E47.18013
G1 X101.807 Y124.052 E48.01938
G1 F1500 E46.01938
G1 F300 Z0.48
;MESH:NONMESH
G0 F6000 X103.963 Y103.963 Z0.48
;TIME_ELAPSED:55.683673
;LAYER:1
M106 S85
G0 F7500 X103.963 Y103.963 Z0.76
;TYPE:SUPPORT-INTERFACE
G1 F300 Z0.56
G1 F1500 E48.01938
G1 X115.565 Y115.565 E48.85979
G0 F7500 X115.565 Y115.913
G1 F1500 X108.525 Y122.953 E49.36974
G0 F7500 X108.019 Y122.953
G1 F1500 X102.755 Y117.689 E49.75105
G1 X102.755 Y117.523
G1 X115.565 Y104.713 E50.67897
G0 F7500 X115.565 Y104.365
G1 F1500 X115.164 Y103.963 E50.70805
G1 F1500 E48.70805
G1 F300 Z0.76
G0 F7500 X112.581 Y103.963 Z0.76
G1 F300 Z0.56
G1 F1500 E50.70805
G1 X102.755 Y113.789 E51.41982
G1 X102.755 Y113.956
G1 X111.753 Y122.953 E52.07157
G0 F7500 X112.259 Y122.953
G1 F1500 X115.565 Y119.647 E52.31104
G0 F7500 X115.565 Y119.299
G1 F1500 X102.755 Y106.489 E53.23896
G1 X102.755 Y106.322
G1 X105.114 Y103.963 E53.40984
G1 F1500 E51.40984
G1 F300 Z0.76
G0 F7500 X107.697 Y103.963 Z0.76
G1 F300 Z0.56
G1 F1500 E53.40984
G1 X115.565 Y111.832 E53.97981
G0 F7500 X115.565 Y112.18
G1 F1500 X104.792 Y122.953 E54.76017
G0 F7500 X104.286 Y122.953
G1 F1500 X102.755 Y121.423 E54.87103
G1 X102.755 Y121.256
G1 X115.565 Y108.446 E55.79895
G0 F7500 X115.565 Y108.098
G1 F1500 X111.43 Y103.963 E56.09848
G1 F1500 E54.09848
G1 F300 Z0.76
G0 F7500 X108.848 Y103.963 Z0.76
G1 F300 Z0.56
G1 F1500 E56.09848
G1 X102.755 Y110.056 E56.53984
G1 X102.755 Y110.222
G1 X115.486 Y122.953 E57.46203
G1 F1500 E55.46203
G1 F300 Z0.76
;MESH:mpuHeadAttachment-Body.stl
G0 F7500 X117.58 Y124.582 Z0.76
;TYPE:WALL-INNER
G1 F300 Z0.56
G1 F1500 E57.46203
G1 F1098.2 X117.903 Y124.563 E57.48467
G1 F1233.6 X118.194 Y124.512 E57.50307
G1 F1460.2 X118.461 Y124.386 E57.5186
G1 F1586.5 X118.678 Y124.169 E57.53346
G1 F1463.4 X118.804 Y123.902 E57.54896
G1 F1236 X118.855 Y123.611 E57.56733
G1 F1098.2 X118.874 Y123.288 E57.58996
G1 F1064.5 X118.874 Y103.624 E59.0092
G1 F1096.3 X118.855 Y103.305 E59.0316
G1 F1231.3 X118.804 Y103.013 E59.05009
G1 F1479.8 X118.649 Y102.706 E59.06795
G1 F1613.7 X118.462 Y102.528 E59.08024
G1 F1466.7 X118.191 Y102.399 E59.09596
G1 F1236 X117.903 Y102.349 E59.11413
G1 F1100 X117.58 Y102.33 E59.13673
G1 F1066.2 X102.416 Y102.33 E60.22942
G1 F1096.3 X102.096 Y102.349 E60.25189
G1 F1233.6 X101.804 Y102.4 E60.27035
G1 F1466.7 X101.534 Y102.528 E60.286
G1 F1594.2 X101.321 Y102.74 E60.30048
G1 F1466.7 X101.192 Y103.013 E60.3163
G1 F1236 X101.141 Y103.305 E60.33473
G1 F1098.2 X101.122 Y103.624 E60.35709
G1 F1064.5 X101.122 Y123.288 E61.77633
G1 F1098.2 X101.141 Y123.611 E61.79896
G1 F1233.6 X101.192 Y123.902 E61.81736
G1 F1460.2 X101.318 Y124.169 E61.8329
G1 F1582.7 X101.533 Y124.385 E61.84769
G1 F1460.2 X101.804 Y124.512 E61.86344
G1 F1236 X102.097 Y124.563 E61.88193
G1 F1098.2 X102.416 Y124.582 E61.90428
G1 F1064.5 X117.58 Y124.582 E62.99874
G0 F7500 X117.611 Y125.112
;TYPE:WALL-OUTER
G1 F1500 X118.018 Y125.064 E63.01973
G1 X118.396 Y124.932 E63.04024
G1 X118.729 Y124.722 E63.0604
G1 X119.014 Y124.437 E63.08105
G1 X119.224 Y124.104 E63.10121
G1 X119.356 Y123.726 E63.12172
G1 X119.404 Y123.319 E63.14271
G1 X119.404 Y103.593 E64.15309
G1 X119.356 Y103.19 E64.17388
G1 X119.224 Y102.812 E64.19438
G1 X119.011 Y102.471 E64.21498
G1 X118.729 Y102.193 E64.23526
G1 X118.395 Y101.98 E64.25555
G1 X118.018 Y101.848 E64.27601
G1 X117.611 Y101.801 E64.297
G1 X102.385 Y101.8 E65.07688
G1 X101.982 Y101.848 E65.09767
G1 X101.601 Y101.98 E65.11832
G1 X101.267 Y102.193 E65.13861
G1 X100.986 Y102.471 E65.15886
G1 X100.772 Y102.812 E65.17948
G1 X100.64 Y103.19 E65.19999
G1 X100.592 Y103.593 E65.22077
G1 X100.592 Y123.319 E66.23115
G1 X100.64 Y123.726 E66.25214
G1 X100.772 Y124.104 E66.27265
G1 X100.982 Y124.437 E66.29282
G1 X101.266 Y124.722 E66.31343
G1 X101.604 Y124.932 E66.33381
G1 X101.982 Y125.064 E66.35431
G1 X102.385 Y125.112 E66.3751
G1 X117.611 Y125.112 E67.15499
G1 F1500 E65.15499
G1 F300 Z0.76
G0 F7500 X101.807 Y124.052 Z0.76
G1 F300 Z0.56
G1 F1500 E67.15499
G1 X101.683 Y123.947 E67.16331
G1 X101.653 Y123.855 E67.16827
G1 X101.652 Y103.016 E68.23565
G1 X101.757 Y102.892 E68.24398
G1 X101.85 Y102.86 E68.24901
G1 X118.146 Y102.86 E69.0837
G1 X118.304 Y102.951 E69.09304
G1 X118.343 Y103.058 E69.09888
G1 X118.344 Y123.855 E70.16411
G1 X118.313 Y123.947 E70.16908
G1 X118.192 Y124.051 E70.17726
G1 X101.807 Y124.052 E71.01651
G1 F1500 E69.01651
G1 F300 Z0.76
;MESH:NONMESH
G0 F7500 X103.963 Y103.963 Z0.76
;TIME_ELAPSED:77.064626
;LAYER:2
M106 S170
G0 F9000 X103.963 Y103.963 Z1.04
;TYPE:SUPPORT-INTERFACE
G1 F300 Z0.84
G1 F1500 E71.01651
G1 F1800 X115.565 Y115.565 E71.85692
G0 F9000 X115.565 Y115.913
G1 F1800 X108.525 Y122.953 E72.36687
G0 F9000 X108.019 Y122.953
G1 F1800 X102.755 Y117.689 E72.74818
G1 X102.755 Y117.523
G1 X115.565 Y104.713 E73.6761
G0 F9000 X115.565 Y104.365
G1 F1800 X115.164 Y103.963 E73.70518
G1 F1500 E71.70518
G1 F300 Z1.04
G0 F9000 X112.581 Y103.963 Z1.04
G1 F300 Z0.84
G1 F1500 E73.70518
G1 F1800 X102.755 Y113.789 E74.41695
G1 X102.755 Y113.956
G1 X111.753 Y122.953 E75.0687
G0 F9000 X112.259 Y122.953
G1 F1800 X115.565 Y119.647 E75.30817
G0 F9000 X115.565 Y119.299
G1 F1800 X102.755 Y106.489 E76.23609
G1 X102.755 Y106.322
G1 X105.114 Y103.963 E76.40697
G1 F1500 E74.40697
G1 F300 Z1.04
G0 F9000 X107.697 Y103.963 Z1.04
G1 F300 Z0.84
G1 F1500 E76.40697
G1 F1800 X115.565 Y111.832 E76.97694
G0 F9000 X115.565 Y112.18
G1 F1800 X104.792 Y122.953 E77.7573
G0 F9000 X104.286 Y122.953
G1 F1800 X102.755 Y121.423 E77.86817
G1 X102.755 Y121.256
G1 X115.565 Y108.446 E78.79608
G0 F9000 X115.565 Y108.098
G1 F1800 X111.43 Y103.963 E79.09561
G1 F1500 E77.09561
G1 F300 Z1.04
G0 F9000 X108.848 Y103.963 Z1.04
G1 F300 Z0.84
G1 F1500 E79.09561
G1 F1800 X102.755 Y110.056 E79.53697
G1 X102.755 Y110.222
G1 X115.486 Y122.953 E80.45916
G1 F1500 E78.45916
G1 F300 Z1.04
;MESH:mpuHeadAttachment-Body.stl
G0 F9000 X117.58 Y124.582 Z1.04
;TYPE:WALL-INNER
G1 F300 Z0.84
