;FLAVOR:Marlin
;TIME:1256
;Filament used: 1.51521m
;Layer height: 0.28
;MINX:77.076
;MINY:90.84
;MINZ:0.28
;MAXX:119.404
;MAXY:129.156
;MAXZ:5.24
;TARGET_MACHINE.NAME:Artillery Hornet
;Generated with Cura_SteamEngine 5.7.1
M140 S60
M105
M190 S60
M104 S205
M105
M109 S205
M82 ;absolute extrusion mode
G28 ; home all axes
 M117 Purge extruder
 G92 E0 ; reset extruder
 G1 Z1.0 F3000 ; move z up little to prevent scratching of surface
 G1 X2 Y20 Z0.3 F5000.0 ; move to start-line position
 G1 X2 Y200.0 Z0.3 F1500.0 E15 ; draw 1st line
 G1 X2 Y200.0 Z0.4 F5000.0 ; move to side a little
 G1 X2 Y20 Z0.4 F1500.0 E30 ; draw 2nd line
 G92 E0 ; reset extruder
 G1 Z1.0 F3000 ; move z up little to prevent scratching of surface
G92 E0
G92 E0
G1 F1500 E-2
;LAYER_COUNT:18
;LAYER:0
M107
G1 F300 Z0.48
;MESH:ads1115FlatHolder.stl
G0 F6000 X96.968 Y125.212 Z0.48
;TYPE:WALL-INNER
G1 F300 Z0.28
G1 F1500 E0
G1 F1200 X96.968 Y94.784 E1.55854
G1 X77.516 Y94.784 E2.55488
G1 X77.516 Y125.212 E4.11342
G1 X96.968 Y125.212 E5.10977
G0 F6000 X97.408 Y125.652
;TYPE:WALL-OUTER
G1 F1200 X97.408 Y94.344 E6.71338
G1 X77.076 Y94.344 E7.7548
G1 X77.076 Y125.652 E9.35841
G1 X97.408 Y125.652 E10.39983
G0 F6000 X96.572 Y124.816
;TYPE:SKIN
G1 F1200 X77.912 Y124.816 E11.35561
G1 X77.912 Y95.18 E12.87358
G1 X96.572 Y95.18 E13.82936
G1 X96.572 Y124.816 E15.34733
G1 F1500 E13.34733
G1 F300 Z0.48
G0 F6000 X78.132 Y124.179 Z0.48
G1 F300 Z0.28
G1 F1500 E15.34733
G1 F1200 X78.549 Y124.596 E15.37754
G0 F6000 X79.171 Y124.596
G1 F1200 X78.132 Y123.556 E15.45284
G0 F6000 X78.132 Y122.934
G1 F1200 X79.793 Y124.596 E15.57319
G0 F6000 X80.416 Y124.596
G1 F1200 X78.132 Y122.312 E15.73864
G0 F6000 X78.132 Y121.69
G1 F1200 X81.038 Y124.596 E15.94914
G0 F6000 X81.66 Y124.596
G1 F1200 X78.132 Y121.067 E16.20473
G0 F6000 X78.132 Y120.445
G1 F1200 X82.282 Y124.596 E16.50538
G0 F6000 X82.905 Y124.596
G1 F1200 X78.132 Y119.823 E16.85112
G0 F6000 X78.132 Y119.201
G1 F1200 X83.527 Y124.596 E17.24192
G0 F6000 X84.149 Y124.596
G1 F1200 X78.132 Y118.578 E17.67781
G0 F6000 X78.132 Y117.956
G1 F1200 X84.771 Y124.596 E18.15875
G0 F6000 X85.394 Y124.596
G1 F1200 X78.132 Y117.334 E18.68479
G0 F6000 X78.132 Y116.712
G1 F1200 X86.016 Y124.596 E19.25588
G0 F6000 X86.638 Y124.596
G1 F1200 X78.132 Y116.089 E19.87207
G0 F6000 X78.132 Y115.467
G1 F1200 X87.261 Y124.596 E20.53334
G0 F6000 X87.883 Y124.596
G1 F1200 X78.132 Y114.845 E21.23967
G0 F6000 X78.132 Y114.222
G1 F1200 X88.505 Y124.596 E21.9911
G0 F6000 X89.127 Y124.596
G1 F1200 X78.132 Y113.6 E22.78758
G0 F6000 X78.132 Y112.978
G1 F1200 X89.75 Y124.596 E23.62915
G0 F6000 X90.372 Y124.596
G1 F1200 X78.132 Y112.356 E24.51578
G0 F6000 X78.132 Y111.733
G1 F1200 X90.994 Y124.596 E25.4475
G0 F6000 X91.616 Y124.596
G1 F1200 X78.132 Y111.111 E26.42427
G0 F6000 X78.132 Y110.489
G1 F1200 X92.239 Y124.596 E27.44614
G0 F6000 X92.861 Y124.596
G1 F1200 X78.132 Y109.867 E28.51306
G0 F6000 X78.132 Y109.244
G1 F1200 X93.483 Y124.596 E29.62508
G0 F6000 X94.105 Y124.596
G1 F1200 X78.132 Y108.622 E30.78215
G0 F6000 X78.132 Y108
G1 F1200 X94.728 Y124.596 E31.98431
G0 F6000 X95.35 Y124.596
G1 F1200 X78.132 Y107.378 E33.23153
G0 F6000 X78.132 Y106.755
G1 F1200 X95.972 Y124.596 E34.52384
G0 F6000 X96.352 Y124.353
G1 F1200 X78.132 Y106.133 E35.84364
G0 F6000 X78.132 Y105.511
G1 F1200 X96.352 Y123.731 E37.16344
G0 F6000 X96.352 Y123.109
G1 F1200 X78.132 Y104.889 E38.48324
G0 F6000 X78.132 Y104.266
G1 F1200 X96.352 Y122.486 E39.80304
G0 F6000 X96.352 Y121.864
G1 F1200 X78.132 Y103.644 E41.12284
G0 F6000 X78.132 Y103.022
G1 F1200 X96.352 Y121.242 E42.44264
G0 F6000 X96.352 Y120.62
G1 F1200 X78.132 Y102.4 E43.76244
G0 F6000 X78.132 Y101.777
G1 F1200 X96.352 Y119.997 E45.08224
G0 F6000 X96.352 Y119.375
G1 F1200 X78.132 Y101.155 E46.40204
G0 F6000 X78.132 Y100.533
G1 F1200 X96.352 Y118.753 E47.72184
G0 F6000 X96.352 Y118.131
G1 F1200 X78.132 Y99.911 E49.04164
G0 F6000 X78.132 Y99.288
G1 F1200 X96.352 Y117.508 E50.36144
G0 F6000 X96.352 Y116.886
G1 F1200 X78.132 Y98.666 E51.68124
G0 F6000 X78.132 Y98.044
G1 F1200 X96.352 Y116.264 E53.00104
G0 F6000 X96.352 Y115.642
G1 F1200 X78.132 Y97.422 E54.32084
G0 F6000 X78.132 Y96.799
G1 F1200 X96.352 Y115.019 E55.64064
G0 F6000 X96.352 Y114.397
G1 F1200 X78.132 Y96.177 E56.96044
G0 F6000 X78.132 Y95.555
G1 F1200 X96.352 Y113.775 E58.28024
G0 F6000 X96.352 Y113.153
G1 F1200 X78.599 Y95.4 E59.56621
G0 F6000 X79.221 Y95.4
G1 F1200 X96.352 Y112.53 E60.80709
G0 F6000 X96.352 Y111.908
G1 F1200 X79.844 Y95.4 E62.00288
G0 F6000 X80.466 Y95.4
G1 F1200 X96.352 Y111.286 E63.15361
G0 F6000 X96.352 Y110.664
G1 F1200 X81.088 Y95.4 E64.25929
G0 F6000 X81.71 Y95.4
G1 F1200 X96.352 Y110.041 E65.31987
G0 F6000 X96.352 Y109.419
G1 F1200 X82.333 Y95.4 E66.33536
G0 F6000 X82.955 Y95.4
G1 F1200 X96.352 Y108.797 E67.3058
G0 F6000 X96.352 Y108.175
G1 F1200 X83.577 Y95.4 E68.23118
G0 F6000 X84.199 Y95.4
G1 F1200 X96.352 Y107.552 E69.11147
G0 F6000 X96.352 Y106.93
G1 F1200 X84.822 Y95.4 E69.94667
G0 F6000 X85.444 Y95.4
G1 F1200 X96.352 Y106.308 E70.73681
G0 F6000 X96.352 Y105.686
G1 F1200 X86.066 Y95.4 E71.48189
G0 F6000 X86.688 Y95.4
G1 F1200 X96.352 Y105.063 E72.18189
G0 F6000 X96.352 Y104.441
G1 F1200 X87.311 Y95.4 E72.83679
G0 F6000 X87.933 Y95.4
G1 F1200 X96.352 Y103.819 E73.44664
G0 F6000 X96.352 Y103.197
G1 F1200 X88.555 Y95.4 E74.01143
G0 F6000 X89.177 Y95.4
G1 F1200 X96.352 Y102.574 E74.53112
G0 F6000 X96.352 Y101.952
G1 F1200 X89.8 Y95.4 E75.00573
G0 F6000 X90.422 Y95.4
G1 F1200 X96.352 Y101.33 E75.43528
G0 F6000 X96.352 Y100.708
G1 F1200 X91.044 Y95.4 E75.81978
G0 F6000 X91.666 Y95.4
G1 F1200 X96.352 Y100.085 E76.15918
G0 F6000 X96.352 Y99.463
G1 F1200 X92.289 Y95.4 E76.45349
G0 F6000 X92.911 Y95.4
G1 F1200 X96.352 Y98.841 E76.70275
G0 F6000 X96.352 Y98.219
G1 F1200 X93.533 Y95.4 E76.90695
G0 F6000 X94.156 Y95.4
G1 F1200 X96.352 Y97.596 E77.06602
G0 F6000 X96.352 Y96.974
G1 F1200 X94.778 Y95.4 E77.18003
G0 F6000 X95.4 Y95.4
G1 F1200 X96.352 Y96.352 E77.24899
G0 F6000 X96.352 Y95.73
G1 F1200 X96.022 Y95.4 E77.2729
G1 F1500 E75.2729
G1 F300 Z0.48
;MESH:mpuFlatHolder.stl
G0 F6000 X118.964 Y128.708 Z0.48
;TYPE:WALL-INNER
G1 F300 Z0.28
G1 F1500 E77.2729
G1 F1200 X118.964 Y91.28 E79.18998
G1 X101.032 Y91.28 E80.10847
G1 X101.032 Y128.708 E82.02555
G1 X118.964 Y128.708 E82.94404
G0 F6000 X119.404 Y129.148
;TYPE:WALL-OUTER
G1 F1200 X119.404 Y90.84 E84.9062
G1 X100.592 Y90.84 E85.86976
G1 X100.592 Y129.148 E87.83192
G1 X119.404 Y129.148 E88.79548
G0 F6000 X118.568 Y128.312
;TYPE:SKIN
G1 F1200 X101.428 Y128.312 E89.67341
G1 X101.428 Y91.676 E91.54992
G1 X118.568 Y91.676 E92.42784
G1 X118.568 Y128.312 E94.30436
G1 F1500 E92.30436
G1 F300 Z0.48
G0 F6000 X101.648 Y127.783 Z0.48
G1 F300 Z0.28
G1 F1500 E94.30436
G1 F1200 X101.957 Y128.092 E94.32675
G0 F6000 X102.579 Y128.092
G1 F1200 X101.648 Y127.16 E94.39422
G0 F6000 X101.648 Y126.538
G1 F1200 X103.202 Y128.092 E94.50679
G0 F6000 X103.824 Y128.092
G1 F1200 X101.648 Y125.916 E94.66441
G0 F6000 X101.648 Y125.294
G1 F1200 X104.446 Y128.092 E94.86709
G0 F6000 X105.068 Y128.092
G1 F1200 X101.648 Y124.671 E95.11486
G0 F6000 X101.648 Y124.049
G1 F1200 X105.691 Y128.092 E95.40772
G0 F6000 X106.313 Y128.092
G1 F1200 X101.648 Y123.427 E95.74564
G0 F6000 X101.648 Y122.805
G1 F1200 X106.935 Y128.092 E96.12861
G0 F6000 X107.557 Y128.092
G1 F1200 X101.648 Y122.182 E96.55668
G0 F6000 X101.648 Y121.56
G1 F1200 X108.18 Y128.092 E97.02984
G0 F6000 X108.802 Y128.092
G1 F1200 X101.648 Y120.938 E97.54805
G0 F6000 X101.648 Y120.316
G1 F1200 X109.424 Y128.092 E98.11132
G0 F6000 X110.046 Y128.092
G1 F1200 X101.648 Y119.693 E98.71968
G0 F6000 X101.648 Y119.071
G1 F1200 X110.669 Y128.092 E99.37313
G0 F6000 X111.291 Y128.092
G1 F1200 X101.648 Y118.449 E100.07164
G0 F6000 X101.648 Y117.827
G1 F1200 X111.913 Y128.092 E100.81521
G0 F6000 X112.535 Y128.092
G1 F1200 X101.648 Y117.204 E101.60386
G0 F6000 X101.648 Y116.582
G1 F1200 X113.158 Y128.092 E102.43761
G0 F6000 X113.78 Y128.092
G1 F1200 X101.648 Y115.96 E103.31642
G0 F6000 X101.648 Y115.338
G1 F1200 X114.402 Y128.092 E104.24028
G0 F6000 X115.024 Y128.092
G1 F1200 X101.648 Y114.715 E105.20923
G0 F6000 X101.648 Y114.093
G1 F1200 X115.647 Y128.092 E106.22327
G0 F6000 X116.269 Y128.092
G1 F1200 X101.648 Y113.471 E107.28237
G0 F6000 X101.648 Y112.849
G1 F1200 X116.891 Y128.092 E108.38653
G0 F6000 X117.513 Y128.092
G1 F1200 X101.648 Y112.226 E109.53577
G0 F6000 X101.648 Y111.604
G1 F1200 X118.136 Y128.092 E110.73011
G0 F6000 X118.348 Y127.682
G1 F1200 X101.648 Y110.982 E111.93981
G0 F6000 X101.648 Y110.36
G1 F1200 X118.348 Y127.059 E113.14947
G0 F6000 X118.348 Y126.437
G1 F1200 X101.648 Y109.737 E114.35916
G0 F6000 X101.648 Y109.115
G1 F1200 X118.348 Y125.815 E115.56886
G0 F6000 X118.348 Y125.193
G1 F1200 X101.648 Y108.493 E116.77856
G0 F6000 X101.648 Y107.871
G1 F1200 X118.348 Y124.57 E117.98822
G0 F6000 X118.348 Y123.948
G1 F1200 X101.648 Y107.248 E119.19791
G0 F6000 X101.648 Y106.626
G1 F1200 X118.348 Y123.326 E120.40761
G0 F6000 X118.348 Y122.704
G1 F1200 X101.648 Y106.004 E121.6173
G0 F6000 X101.648 Y105.382
G1 F1200 X118.348 Y122.081 E122.82696
G0 F6000 X118.348 Y121.459
G1 F1200 X101.648 Y104.759 E124.03666
G0 F6000 X101.648 Y104.137
G1 F1200 X118.348 Y120.837 E125.24636
G0 F6000 X118.348 Y120.215
G1 F1200 X101.648 Y103.515 E126.45605
G0 F6000 X101.648 Y102.893
G1 F1200 X118.348 Y119.592 E127.66571
G0 F6000 X118.348 Y118.97
G1 F1200 X101.648 Y102.27 E128.87541
G0 F6000 X101.648 Y101.648
G1 F1200 X118.348 Y118.348 E130.0851
G0 F6000 X118.348 Y117.726
G1 F1200 X101.648 Y101.026 E131.2948
G0 F6000 X101.648 Y100.404
G1 F1200 X118.348 Y117.103 E132.50446
G0 F6000 X118.348 Y116.481
G1 F1200 X101.648 Y99.781 E133.71415
G0 F6000 X101.648 Y99.159
G1 F1200 X118.348 Y115.859 E134.92385
G0 F6000 X118.348 Y115.236
G1 F1200 X101.648 Y98.537 E136.13351
G0 F6000 X101.648 Y97.914
G1 F1200 X118.348 Y114.614 E137.34321
G0 F6000 X118.348 Y113.992
G1 F1200 X101.648 Y97.292 E138.5529
G0 F6000 X101.648 Y96.67
G1 F1200 X118.348 Y113.37 E139.7626
G0 F6000 X118.348 Y112.747
G1 F1200 X101.648 Y96.048 E140.97226
G0 F6000 X101.648 Y95.425
G1 F1200 X118.348 Y112.125 E142.18195
G0 F6000 X118.348 Y111.503
G1 F1200 X101.648 Y94.803 E143.39165
G0 F6000 X101.648 Y94.181
G1 F1200 X118.348 Y110.881 E144.60134
G0 F6000 X118.348 Y110.258
G1 F1200 X101.648 Y93.559 E145.811
G0 F6000 X101.648 Y92.936
G1 F1200 X118.348 Y109.636 E147.0207
G0 F6000 X118.348 Y109.014
G1 F1200 X101.648 Y92.314 E148.2304
G0 F6000 X101.852 Y91.896
G1 F1200 X118.348 Y108.392 E149.42531
G0 F6000 X118.348 Y107.769
G1 F1200 X102.475 Y91.896 E150.5751
G0 F6000 X103.097 Y91.896
G1 F1200 X118.348 Y107.147 E151.67984
G0 F6000 X118.348 Y106.525
G1 F1200 X103.719 Y91.896 E152.73952
G0 F6000 X104.341 Y91.896
G1 F1200 X118.348 Y105.903 E153.75414
G0 F6000 X118.348 Y105.28
G1 F1200 X104.964 Y91.896 E154.72364
G0 F6000 X105.586 Y91.896
G1 F1200 X118.348 Y104.658 E155.64808
G0 F6000 X118.348 Y104.036
G1 F1200 X106.208 Y91.896 E156.52746
G0 F6000 X106.83 Y91.896
G1 F1200 X118.348 Y103.414 E157.36179
G0 F6000 X118.348 Y102.791
G1 F1200 X107.453 Y91.896 E158.15099
G0 F6000 X108.075 Y91.896
G1 F1200 X118.348 Y102.169 E158.89513
G0 F6000 X118.348 Y101.547
G1 F1200 X108.697 Y91.896 E159.59422
G0 F6000 X109.319 Y91.896
G1 F1200 X118.348 Y100.925 E160.24825
G0 F6000 X118.348 Y100.302
G1 F1200 X109.942 Y91.896 E160.85716
G0 F6000 X110.564 Y91.896
G1 F1200 X118.348 Y99.68 E161.42101
G0 F6000 X118.348 Y99.058
G1 F1200 X111.186 Y91.896 E161.9398
G0 F6000 X111.808 Y91.896
G1 F1200 X118.348 Y98.436 E162.41354
G0 F6000 X118.348 Y97.813
G1 F1200 X112.431 Y91.896 E162.84215
G0 F6000 X113.053 Y91.896
G1 F1200 X118.348 Y97.191 E163.2257
G0 F6000 X118.348 Y96.569
G1 F1200 X113.675 Y91.896 E163.5642
G0 F6000 X114.297 Y91.896
G1 F1200 X118.348 Y95.947 E163.85764
G0 F6000 X118.348 Y95.324
G1 F1200 X114.92 Y91.896 E164.10595
G0 F6000 X115.542 Y91.896
G1 F1200 X118.348 Y94.702 E164.30921
G0 F6000 X118.348 Y94.08
G1 F1200 X116.164 Y91.896 E164.46741
G0 F6000 X116.786 Y91.896
G1 F1200 X118.348 Y93.458 E164.58056
G0 F6000 X118.348 Y92.835
G1 F1200 X117.409 Y91.896 E164.64858
G0 F6000 X118.031 Y91.896
G1 F1200 X118.348 Y92.213 E164.67154
G1 F1500 E162.67154
G1 F300 Z0.48
;MESH:NONMESH
G0 F6000 X96.968 Y125.212 Z0.48
;TIME_ELAPSED:179.919625
;LAYER:1
M106 S85
;MESH:ads1115FlatHolder.stl
G0 F7500 X96.968 Y125.212 Z0.76
;TYPE:WALL-INNER
G1 F300 Z0.56
G1 F1500 E164.67154
G1 X96.968 Y94.784 E166.23008
G1 X77.516 Y94.784 E167.22642
G1 X77.516 Y125.212 E168.78496
G1 X96.968 Y125.212 E169.78131
G0 F7500 X97.408 Y125.652
;TYPE:WALL-OUTER
G1 F1500 X97.408 Y94.344 E171.38492
G1 X77.076 Y94.344 E172.42634
G1 X77.076 Y125.652 E174.02995
G1 X97.408 Y125.652 E175.07137
G0 F7500 X96.572 Y124.816
;TYPE:SKIN
G1 F1500 X77.912 Y124.816 E176.02715
G1 X77.912 Y95.18 E177.54512
G1 X96.572 Y95.18 E178.5009
G1 X96.572 Y124.816 E180.01887
G0 F7500 X96.352 Y123.926
G1 F1500 X95.681 Y124.596 E180.06744
G0 F7500 X95.059 Y124.596
G1 F1500 X96.352 Y123.304 E180.16107
G0 F7500 X96.352 Y122.682
G1 F1500 X94.437 Y124.596 E180.29975
G0 F7500 X93.815 Y124.596
G1 F1500 X96.352 Y122.059 E180.48352
G0 F7500 X96.352 Y121.437
G1 F1500 X93.192 Y124.596 E180.71238
G0 F7500 X92.57 Y124.596
G1 F1500 X96.352 Y120.815 E180.9863
G0 F7500 X96.352 Y120.193
G1 F1500 X91.948 Y124.596 E181.30528
G0 F7500 X91.326 Y124.596
G1 F1500 X96.352 Y119.57 E181.66935
G0 F7500 X96.352 Y118.948
G1 F1500 X90.703 Y124.596 E182.07851
G0 F7500 X90.081 Y124.596
G1 F1500 X96.352 Y118.326 E182.53272
G0 F7500 X96.352 Y117.704
G1 F1500 X89.459 Y124.596 E183.03199
G0 F7500 X88.837 Y124.596
G1 F1500 X96.352 Y117.081 E183.57636
G0 F7500 X96.352 Y116.459
G1 F1500 X88.214 Y124.596 E184.16581
G0 F7500 X87.592 Y124.596
G1 F1500 X96.352 Y115.837 E184.80032
G0 F7500 X96.352 Y115.215
G1 F1500 X86.97 Y124.596 E185.47989
G0 F7500 X86.348 Y124.596
G1 F1500 X96.352 Y114.592 E186.20455
G0 F7500 X96.352 Y113.97
G1 F1500 X85.725 Y124.596 E186.9743
G0 F7500 X85.103 Y124.596
G1 F1500 X96.352 Y113.348 E187.7891
G0 F7500 X96.352 Y112.726
G1 F1500 X84.481 Y124.596 E188.64897
G0 F7500 X83.859 Y124.596
G1 F1500 X96.352 Y112.103 E189.55392
G0 F7500 X96.352 Y111.481
G1 F1500 X83.236 Y124.596 E190.50397
G0 F7500 X82.614 Y124.596
G1 F1500 X96.352 Y110.859 E191.49907
G0 F7500 X96.352 Y110.237
G1 F1500 X81.992 Y124.596 E192.53922
G0 F7500 X81.37 Y124.596
G1 F1500 X96.352 Y109.614 E193.62447
G0 F7500 X96.352 Y108.992
G1 F1500 X80.747 Y124.596 E194.75481
G0 F7500 X80.125 Y124.596
G1 F1500 X96.352 Y108.37 E195.93021
G0 F7500 X96.352 Y107.748
G1 F1500 X79.503 Y124.596 E197.15066
G0 F7500 X78.881 Y124.596
G1 F1500 X96.352 Y107.125 E198.41621
G0 F7500 X96.352 Y106.503
G1 F1500 X78.258 Y124.596 E199.72685
G0 F7500 X78.132 Y124.1
G1 F1500 X96.352 Y105.881 E201.04661
G0 F7500 X96.352 Y105.259
G1 F1500 X78.132 Y123.478 E202.36637
G0 F7500 X78.132 Y122.856
G1 F1500 X96.352 Y104.636 E203.68617
G0 F7500 X96.352 Y104.014
G1 F1500 X78.132 Y122.233 E205.00594
G0 F7500 X78.132 Y121.611
G1 F1500 X96.352 Y103.392 E206.3257
G0 F7500 X96.352 Y102.769
G1 F1500 X78.132 Y120.989 E207.6455
G0 F7500 X78.132 Y120.367
G1 F1500 X96.352 Y102.147 E208.9653
G0 F7500 X96.352 Y101.525
G1 F1500 X78.132 Y119.744 E210.28506
G0 F7500 X78.132 Y119.122
G1 F1500 X96.352 Y100.903 E211.60483
G0 F7500 X96.352 Y100.28
G1 F1500 X78.132 Y118.5 E212.92463
G0 F7500 X78.132 Y117.878
G1 F1500 X96.352 Y99.658 E214.24443
G0 F7500 X96.352 Y99.036
G1 F1500 X78.132 Y117.255 E215.56419
G0 F7500 X78.132 Y116.633
G1 F1500 X96.352 Y98.414 E216.88396
G0 F7500 X96.352 Y97.791
G1 F1500 X78.132 Y116.011 E218.20376
G0 F7500 X78.132 Y115.389
G1 F1500 X96.352 Y97.169 E219.52356
G0 F7500 X96.352 Y96.547
G1 F1500 X78.132 Y114.766 E220.84332
G0 F7500 X78.132 Y114.144
G1 F1500 X96.352 Y95.925 E222.16308
G0 F7500 X96.254 Y95.4
G1 F1500 X78.132 Y113.522 E223.47578
G0 F7500 X78.132 Y112.899
G1 F1500 X95.632 Y95.4 E224.74339
G0 F7500 X95.01 Y95.4
G1 F1500 X78.132 Y112.277 E225.96595
G0 F7500 X78.132 Y111.655
G1 F1500 X94.387 Y95.4 E227.14341
G0 F7500 X93.765 Y95.4
G1 F1500 X78.132 Y111.033 E228.27581
G0 F7500 X78.132 Y110.41
