;FLAVOR:Marlin
;TIME:11755
;Filament used: 10.6817m
;Layer height: 0.28
;MINX:79.958
;MINY:64.879
;MINZ:0.28
;MAXX:143.788
;MAXY:158.868
;MAXZ:31.28
;TARGET_MACHINE.NAME:Artillery Hornet
;Generated with Cura_SteamEngine 5.7.1
M140 S60
M105
M190 S60
M104 S205
M105
M109 S205
M82 ;absolute extrusion mode
G28 ; home all axes
 M117 Purge extruder
 G92 E0 ; reset extruder
 G1 Z1.0 F3000 ; move z up little to prevent scratching of surface
 G1 X2 Y20 Z0.3 F5000.0 ; move to start-line position
 G1 X2 Y200.0 Z0.3 F1500.0 E15 ; draw 1st line
 G1 X2 Y200.0 Z0.4 F5000.0 ; move to side a little
 G1 X2 Y20 Z0.4 F1500.0 E30 ; draw 2nd line
 G92 E0 ; reset extruder
 G1 Z1.0 F3000 ; move z up little to prevent scratching of surface
G92 E0
G92 E0
G1 F1500 E-2
;LAYER_COUNT:111
;LAYER:0
M107
G1 F300 Z0.48
G0 F6000 X83.985 Y65.615 Z0.48
;TYPE:SKIRT
G1 F300 Z0.28
G1 F1500 E0
G1 F1200 X84.304 Y65.294 E0.02318
G1 X84.759 Y65.031 E0.0501
G1 X85.238 Y64.879 E0.07584
G1 X86.955 Y64.879 E0.16378
G1 X87.588 Y65.025 E0.19706
G1 X88.09 Y65.361 E0.228
G1 X88.447 Y65.759 E0.25538
G1 X139.345 Y65.759 E2.86241
G1 X139.529 Y65.503 E2.87856
G1 X139.744 Y65.312 E2.89329
G1 X140.191 Y65.043 E2.92001
G1 X140.691 Y64.879 E2.94696
G1 X141.93 Y64.879 E3.01043
G1 X142.563 Y65.025 E3.0437
G1 X143.065 Y65.361 E3.07464
G1 X143.351 Y65.68 E3.09659
G1 X143.593 Y66.082 E3.12062
G1 X143.757 Y66.582 E3.14757
G1 X143.757 Y69.976 E3.32141
G1 X143.788 Y70.239 E3.33498
G1 X143.788 Y73.239 E3.48864
G1 X143.757 Y73.503 E3.50226
G1 X143.757 Y76.772 E3.6697
G1 X143.611 Y77.405 E3.70297
G1 X143.275 Y77.907 E3.73391
G1 X142.956 Y78.193 E3.75586
G1 X142.554 Y78.435 E3.77989
G1 X142.054 Y78.599 E3.80684
G1 X140.815 Y78.599 E3.8703
G1 X140.182 Y78.453 E3.90358
G1 X139.68 Y78.117 E3.93452
G1 X139.323 Y77.719 E3.9619
G1 X137.425 Y77.719 E4.05912
G1 X137.241 Y77.975 E4.07527
G1 X137.026 Y78.166 E4.09
G1 X136.579 Y78.435 E4.11672
G1 X136.079 Y78.599 E4.14367
G1 X134.841 Y78.599 E4.20709
G1 X134.208 Y78.453 E4.24036
G1 X133.706 Y78.117 E4.2713
G1 X133.42 Y77.798 E4.29324
G1 X133.178 Y77.396 E4.31728
G1 X133.014 Y76.896 E4.34423
G1 X133.013 Y72.719 E4.55818
G1 X94.365 Y72.719 E6.53775
G1 X94.365 Y73.759 E6.59102
G1 X121.095 Y73.759 E7.96015
G1 X121.279 Y73.503 E7.9763
G1 X121.494 Y73.312 E7.99103
G1 X121.942 Y73.043 E8.01779
G1 X122.442 Y72.879 E8.04475
G1 X123.679 Y72.879 E8.10811
G1 X124.312 Y73.025 E8.14138
G1 X124.814 Y73.361 E8.17232
G1 X125.1 Y73.68 E8.19427
G1 X125.342 Y74.082 E8.2183
G1 X125.506 Y74.582 E8.24525
G1 X125.506 Y76.226 E8.32946
G1 X125.537 Y76.489 E8.34302
G1 X125.537 Y79.489 E8.49669
G1 X125.506 Y79.754 E8.51035
G1 X125.506 Y81.272 E8.5881
G1 X125.36 Y81.905 E8.62138
G1 X125.024 Y82.407 E8.65232
G1 X124.705 Y82.693 E8.67426
G1 X124.303 Y82.935 E8.6983
G1 X123.803 Y83.099 E8.72525
G1 X122.564 Y83.099 E8.78871
G1 X121.931 Y82.953 E8.82199
G1 X121.429 Y82.617 E8.85293
G1 X121.072 Y82.219 E8.88031
G1 X104.482 Y82.219 E9.73006
G1 X103.843 Y82.072 E9.76365
G1 X103.336 Y81.723 E9.79517
G1 X103.107 Y81.496 E9.81169
G1 X102.819 Y81.017 E9.84032
G1 X102.721 Y80.719 E9.85639
G1 X88.426 Y80.719 E10.58858
G1 X88.242 Y80.975 E10.60473
G1 X88.027 Y81.166 E10.61946
G1 X87.58 Y81.435 E10.64618
G1 X87.08 Y81.599 E10.67314
G1 X85.352 Y81.599 E10.76165
G1 X84.719 Y81.453 E10.79492
G1 X84.304 Y81.175 E10.82051
G1 X83.968 Y80.857 E10.8442
G1 X83.692 Y80.398 E10.87163
G1 X83.529 Y79.91 E10.89799
G1 X83.512 Y78.56 E10.96714
G1 X83.493 Y78.277 E10.98167
G1 X83.426 Y77.89 E11.00179
G1 X83.253 Y77.574 E11.02024
G1 X82.921 Y77.242 E11.04429
G1 X82.157 Y76.622 E11.09468
G1 X81.741 Y76.103 E11.12875
G1 X81.497 Y75.553 E11.15957
G1 X81.365 Y75.061 E11.18566
G1 X81.367 Y71.502 E11.36796
G1 X81.545 Y70.72 E11.40904
G1 X81.986 Y70.014 E11.45167
G1 X82.179 Y69.793 E11.4667
G1 X82.923 Y69.257 E11.51367
G1 X83.128 Y69.071 E11.52785
G1 X83.278 Y68.873 E11.54057
G1 X83.455 Y68.485 E11.56242
G1 X83.512 Y68.074 E11.58367
G1 X83.529 Y66.689 E11.65462
G1 X83.683 Y66.04 E11.68878
G1 X83.985 Y65.615 E11.71549
G0 F6000 X84.344 Y65.87
G1 F1200 X84.574 Y65.646 E11.73193
G1 X84.935 Y65.437 E11.7533
G1 X85.308 Y65.319 E11.77333
G1 X86.904 Y65.319 E11.85508
G1 X87.41 Y65.436 E11.88168
G1 X87.799 Y65.696 E11.90565
G1 X88.022 Y65.945 E11.92277
G1 X88.175 Y66.199 E11.93796
G1 X139.579 Y66.199 E14.5709
G1 X139.833 Y65.821 E14.59423
G1 X139.971 Y65.689 E14.60401
G1 X140.376 Y65.445 E14.62823
G1 X140.761 Y65.319 E14.64898
G1 X141.879 Y65.319 E14.70624
G1 X142.385 Y65.436 E14.73284
G1 X142.774 Y65.696 E14.75681
G1 X142.997 Y65.945 E14.77393
G1 X143.191 Y66.267 E14.79319
G1 X143.317 Y66.652 E14.81394
G1 X143.317 Y70.003 E14.98558
G1 X143.348 Y70.239 E14.99777
G1 X143.348 Y73.239 E15.15143
G1 X143.317 Y73.479 E15.16382
G1 X143.317 Y76.721 E15.32988
G1 X143.2 Y77.227 E15.35648
G1 X142.94 Y77.616 E15.38045
G1 X142.691 Y77.839 E15.39757
G1 X142.369 Y78.033 E15.41682
G1 X141.984 Y78.159 E15.43757
G1 X140.866 Y78.159 E15.49484
G1 X140.36 Y78.042 E15.52144
G1 X139.971 Y77.782 E15.54541
G1 X139.748 Y77.533 E15.56253
G1 X139.595 Y77.279 E15.57771
G1 X137.191 Y77.279 E15.70085
G1 X136.937 Y77.657 E15.72418
G1 X136.799 Y77.789 E15.73396
G1 X136.394 Y78.033 E15.75818
G1 X136.009 Y78.159 E15.77892
G1 X134.892 Y78.159 E15.83614
G1 X134.386 Y78.042 E15.86274
G1 X133.997 Y77.782 E15.8867
G1 X133.774 Y77.533 E15.90383
G1 X133.58 Y77.211 E15.92308
G1 X133.454 Y76.826 E15.94383
G1 X133.453 Y72.279 E16.17673
G1 X93.925 Y72.279 E18.20138
G1 X93.925 Y74.199 E18.29972
G1 X121.329 Y74.199 E19.70337
G1 X121.583 Y73.821 E19.7267
G1 X121.721 Y73.689 E19.73648
G1 X122.127 Y73.445 E19.76074
G1 X122.512 Y73.319 E19.78149
G1 X123.628 Y73.319 E19.83865
G1 X124.134 Y73.436 E19.86525
G1 X124.523 Y73.696 E19.88922
G1 X124.746 Y73.945 E19.90634
G1 X124.94 Y74.267 E19.9256
G1 X125.066 Y74.652 E19.94635
G1 X125.066 Y76.253 E20.02835
G1 X125.097 Y76.489 E20.04054
G1 X125.097 Y79.489 E20.1942
G1 X125.066 Y79.729 E20.2066
G1 X125.066 Y81.221 E20.28302
G1 X124.949 Y81.727 E20.30962
G1 X124.689 Y82.116 E20.33359
G1 X124.44 Y82.339 E20.35071
G1 X124.118 Y82.533 E20.36996
G1 X123.733 Y82.659 E20.39071
G1 X122.615 Y82.659 E20.44798
G1 X122.109 Y82.542 E20.47458
G1 X121.72 Y82.282 E20.49854
G1 X121.497 Y82.033 E20.51566
G1 X121.344 Y81.779 E20.53085
G1 X104.533 Y81.779 E21.39192
G1 X104.021 Y81.661 E21.41883
G1 X103.585 Y81.361 E21.44594
G1 X103.458 Y81.226 E21.45544
G1 X103.221 Y80.832 E21.47899
G1 X103.111 Y80.496 E21.4971
G1 X103.095 Y80.279 E21.50824
G1 X88.192 Y80.279 E22.27158
G1 X87.938 Y80.657 E22.29491
G1 X87.8 Y80.789 E22.30469
G1 X87.395 Y81.033 E22.32891
G1 X87.01 Y81.159 E22.34966
G1 X85.403 Y81.159 E22.43197
G1 X84.897 Y81.042 E22.45857
G1 X84.549 Y80.809 E22.48002
G1 X84.315 Y80.58 E22.49679
G1 X84.093 Y80.211 E22.51885
G1 X83.968 Y79.837 E22.53905
G1 X83.952 Y78.544 E22.60528
G1 X83.931 Y78.227 E22.62155
G1 X83.846 Y77.742 E22.64677
G1 X83.609 Y77.308 E22.6721
G1 X83.276 Y76.975 E22.69622
G1 X83.082 Y76.806 E22.7094
G1 X82.469 Y76.308 E22.74985
G1 X82.119 Y75.872 E22.77849
G1 X81.922 Y75.439 E22.80286
G1 X81.805 Y75.003 E22.82598
G1 X81.807 Y71.552 E23.00274
G1 X81.958 Y70.889 E23.03757
G1 X82.359 Y70.247 E23.07634
G1 X82.475 Y70.123 E23.08504
G1 X83.194 Y69.604 E23.13046
G1 X83.455 Y69.368 E23.14848
G1 X83.659 Y69.1 E23.16574
G1 X83.84 Y68.701 E23.18818
G1 X83.904 Y68.451 E23.20139
G1 X83.952 Y68.109 E23.21908
G1 X83.968 Y66.743 E23.28906
G1 X84.091 Y66.226 E23.31628
G1 X84.344 Y65.87 E23.33865
G0 F6000 X84.703 Y66.125
G1 F1200 X84.499 Y66.412 E23.35668
G1 X84.407 Y66.797 E23.37696
G1 X84.392 Y68.145 E23.44601
G1 X84.337 Y68.531 E23.46598
G1 X84.259 Y68.836 E23.4821
G1 X84.161 Y69.093 E23.49619
G1 X84.031 Y69.338 E23.5104
G1 X83.78 Y69.667 E23.53159
G1 X83.475 Y69.944 E23.5527
G1 X82.732 Y70.48 E23.59962
G1 X82.371 Y71.058 E23.63453
G1 X82.247 Y71.602 E23.66311
G1 X82.245 Y74.945 E23.83434
G1 X82.323 Y75.257 E23.85081
G1 X82.498 Y75.642 E23.87247
G1 X82.783 Y75.997 E23.89579
G1 X83.37 Y76.474 E23.93453
G1 X83.571 Y76.648 E23.94815
G1 X83.889 Y76.966 E23.97118
G1 X84.063 Y77.22 E23.98695
G1 X84.221 Y77.511 E24.00391
G1 X84.304 Y77.802 E24.01941
G1 X84.368 Y78.171 E24.0386
G1 X84.392 Y78.527 E24.05687
G1 X84.407 Y79.764 E24.12024
G1 X84.47 Y79.985 E24.13201
G1 X84.662 Y80.305 E24.15112
G1 X84.794 Y80.444 E24.16094
G1 X85.073 Y80.631 E24.17814
G1 X85.454 Y80.719 E24.19817
G1 X86.941 Y80.719 E24.27434
G1 X87.168 Y80.656 E24.2864
G1 X87.573 Y80.412 E24.31062
G1 X87.769 Y80.12 E24.32864
G1 X87.864 Y79.839 E24.34383
G1 X103.535 Y79.839 E25.14651
G1 X103.535 Y80.378 E25.17412
G1 X103.598 Y80.605 E25.18618
G1 X103.835 Y80.999 E25.20973
G1 X104.201 Y81.251 E25.23249
G1 X104.584 Y81.339 E25.25262
G1 X121.64 Y81.339 E26.12624
G1 X121.68 Y81.484 E26.13394
G1 X121.874 Y81.806 E26.1532
G1 X122.006 Y81.944 E26.16298
G1 X122.285 Y82.131 E26.18018
G1 X122.666 Y82.219 E26.20021
G1 X123.664 Y82.219 E26.25133
G1 X123.891 Y82.156 E26.2634
G1 X124.213 Y81.962 E26.28265
G1 X124.351 Y81.83 E26.29244
G1 X124.538 Y81.551 E26.30964
G1 X124.626 Y81.17 E26.32967
G1 X124.626 Y79.699 E26.40501
G1 X124.657 Y79.489 E26.41589
G1 X124.657 Y76.489 E26.56955
G1 X124.626 Y76.286 E26.58007
G1 X124.626 Y74.721 E26.66023
G1 X124.563 Y74.494 E26.67229
G1 X124.369 Y74.172 E26.69155
G1 X124.237 Y74.034 E26.70133
G1 X123.958 Y73.847 E26.71853
G1 X123.577 Y73.759 E26.73856
G1 X122.581 Y73.759 E26.78958
G1 X122.354 Y73.822 E26.80164
G1 X121.948 Y74.066 E26.82591
G1 X121.752 Y74.358 E26.84392
G1 X121.657 Y74.639 E26.85911
G1 X93.485 Y74.639 E28.3021
G1 X93.485 Y71.839 E28.44552
G1 X133.893 Y71.839 E30.51524
G1 X133.894 Y76.757 E30.76714
G1 X133.957 Y76.984 E30.77921
G1 X134.151 Y77.306 E30.79846
G1 X134.283 Y77.444 E30.80825
G1 X134.562 Y77.631 E30.82545
G1 X134.943 Y77.719 E30.84548
G1 X135.94 Y77.719 E30.89655
G1 X136.167 Y77.656 E30.90861
G1 X136.572 Y77.412 E30.93283
G1 X136.768 Y77.12 E30.95084
G1 X136.863 Y76.839 E30.96604
G1 X139.891 Y76.839 E31.12113
G1 X139.931 Y76.984 E31.12884
G1 X140.125 Y77.306 E31.14809
G1 X140.257 Y77.444 E31.15787
G1 X140.536 Y77.631 E31.17508
G1 X140.917 Y77.719 E31.19511
G1 X141.915 Y77.719 E31.24622
G1 X142.142 Y77.656 E31.25829
G1 X142.464 Y77.462 E31.27755
G1 X142.602 Y77.33 E31.28733
G1 X142.789 Y77.051 E31.30453
G1 X142.877 Y76.67 E31.32456
G1 X142.877 Y73.449 E31.48954
G1 X142.908 Y73.239 E31.50041
G1 X142.908 Y70.239 E31.65408
G1 X142.877 Y70.036 E31.66459
G1 X142.877 Y66.721 E31.83439
G1 X142.814 Y66.494 E31.84646
G1 X142.62 Y66.172 E31.86571
G1 X142.488 Y66.034 E31.87549
G1 X142.209 Y65.847 E31.8927
G1 X141.828 Y65.759 E31.91273
G1 X140.83 Y65.759 E31.96384
G1 X140.603 Y65.822 E31.97591
G1 X140.198 Y66.066 E32.00013
G1 X140.002 Y66.358 E32.01814
G1 X139.907 Y66.639 E32.03334
G1 X87.879 Y66.639 E34.69824
G1 X87.839 Y66.494 E34.70595
G1 X87.645 Y66.172 E34.7252
G1 X87.513 Y66.034 E34.73498
G1 X87.234 Y65.847 E34.75219
G1 X86.853 Y65.759 E34.77221
G1 X85.375 Y65.759 E34.84792
G1 X85.155 Y65.818 E34.85959
G1 X84.842 Y65.999 E34.87811
G1 X84.703 Y66.125 E34.88771
G0 F6000 X85.326 Y66.732
G1 F1200 X85.448 Y66.639 E34.89557
G1 X86.802 Y66.639 E34.96492
G1 X86.927 Y66.678 E34.97163
G1 X87.022 Y66.799 E34.97951
G1 X87.023 Y79.619 E35.63616
G1 X86.984 Y79.744 E35.64287
G1 X86.863 Y79.839 E35.65075
G1 X85.505 Y79.839 E35.7203
G1 X85.38 Y79.8 E35.72701
G1 X85.286 Y79.68 E35.73482
G1 X85.272 Y78.494 E35.79557
G1 X85.244 Y78.074 E35.81713
G1 X85.16 Y77.597 E35.84194
G1 X85.079 Y77.313 E35.85707
G1 X84.975 Y77.055 E35.87131
G1 X84.82 Y76.769 E35.88798
G1 X84.569 Y76.402 E35.91075
G1 X84.177 Y76.01 E35.93915
G1 X83.935 Y75.8 E35.95556
G1 X83.412 Y75.375 E35.99007
G1 X83.255 Y75.18 E36.0029
G1 X83.125 Y74.893 E36.01904
G1 X83.127 Y71.701 E36.18253
G1 X83.196 Y71.397 E36.1985
G1 X83.385 Y71.094 E36.21679
G1 X84.028 Y70.631 E36.25738
G1 X84.31 Y70.374 E36.27692
G1 X84.51 Y70.16 E36.29192
G1 X84.774 Y69.816 E36.31413
G1 X84.964 Y69.457 E36.33494
G1 X85.103 Y69.094 E36.35485
G1 X85.2 Y68.711 E36.37508
G1 X85.252 Y68.348 E36.39387
G1 X85.273 Y68.079 E36.40769
G1 X85.286 Y66.857 E36.47028
G1 X85.326 Y66.732 E36.477
G1 F1500 E34.477
G1 F300 Z0.48
G0 F6000 X87.501 Y67.614 Z0.48
G1 F300 Z0.28
G1 F1500 E36.477
G1 F1200 X87.622 Y67.519 E36.48488
G1 X140.088 Y67.519 E39.17222
G1 X140.213 Y67.558 E39.17893
G1 X140.308 Y67.679 E39.18681
G1 X140.308 Y75.739 E39.59965
G1 X140.269 Y75.864 E39.60636
G1 X140.148 Y75.959 E39.61424
G1 X136.682 Y75.959 E39.79177
G1 X136.557 Y75.92 E39.79847
G1 X136.462 Y75.799 E39.80635
G1 X136.462 Y70.959 E40.05426
G1 X92.605 Y70.959 E42.30064
G1 X92.605 Y75.519 E42.53421
G1 X121.838 Y75.519 E44.03154
G1 X121.963 Y75.558 E44.03825
G1 X122.058 Y75.679 E44.04613
G1 X122.057 Y80.239 E44.27969
G1 X122.018 Y80.364 E44.2864
G1 X121.896 Y80.459 E44.29432
G1 X104.635 Y80.459 E45.17844
G1 X104.51 Y80.42 E45.18515
G1 X104.415 Y80.299 E45.19303
G1 X104.415 Y78.959 E45.26166
G1 X87.683 Y78.959 E46.11868
G1 X87.558 Y78.92 E46.12539
G1 X87.463 Y78.799 E46.13327
G1 X87.462 Y67.739 E46.69977
G1 X87.501 Y67.614 E46.70648
G1 F1500 E44.70648
G1 F300 Z0.48
G0 F6000 X122.498 Y74.859 Z0.48
G1 F300 Z0.28
G1 F1500 E46.70648
G1 F1200 X122.537 Y74.734 E46.71318
G1 X122.659 Y74.639 E46.7211
G1 X123.526 Y74.639 E46.76551
G1 X123.651 Y74.678 E46.77222
G1 X123.746 Y74.799 E46.7801
G1 X123.746 Y76.389 E46.86154
G1 X123.777 Y76.489 E46.8669
G1 X123.777 Y79.489 E47.02056
G1 X123.746 Y79.588 E47.02588
G1 X123.746 Y81.119 E47.1043
G1 X123.707 Y81.244 E47.111
G1 X123.586 Y81.339 E47.11888
G1 X122.717 Y81.339 E47.16339
G1 X122.592 Y81.3 E47.1701
G1 X122.497 Y81.179 E47.17798
G1 X122.498 Y74.859 E47.5017
G1 F1500 E45.5017
G1 F300 Z0.48
G0 F6000 X134.774 Y76.679 Z0.48
G1 F300 Z0.28
G1 F1500 E47.5017
G1 F1200 X134.773 Y71.619 E47.76087
G1 X134.812 Y71.494 E47.76758
G1 X134.933 Y71.399 E47.77546
G1 X135.802 Y71.399 E47.81997
G1 X135.927 Y71.438 E47.82668
G1 X136.022 Y71.559 E47.83456
G1 X136.022 Y76.619 E48.09373
G1 X135.983 Y76.744 E48.10044
G1 X135.862 Y76.839 E48.10832
G1 X134.994 Y76.839 E48.15278
G1 X134.869 Y76.8 E48.15948
G1 X134.774 Y76.679 E48.16736
G1 F1500 E46.16736
G1 F300 Z0.48
G0 F6000 X140.748 Y76.679 Z0.48
G1 F300 Z0.28
G1 F1500 E48.16736
G1 F1200 X140.748 Y66.859 E48.67035
G1 X140.787 Y66.734 E48.67706
G1 X140.908 Y66.639 E48.68494
G1 X141.777 Y66.639 E48.72945
G1 X141.902 Y66.678 E48.73616
G1 X141.997 Y66.799 E48.74403
G1 X141.997 Y70.139 E48.91511
G1 X142.028 Y70.239 E48.92047
G1 X142.028 Y73.239 E49.07414
G1 X141.997 Y73.338 E49.07945
G1 X141.997 Y76.619 E49.2475
G1 X141.958 Y76.744 E49.25421
G1 X141.837 Y76.839 E49.26209
G1 X140.968 Y76.839 E49.3066
G1 X140.843 Y76.8 E49.31331
G1 X140.748 Y76.679 E49.32119
G0 F6000 X140.308 Y76.757
G1 F1200 X140.502 Y77.079 E49.34044
G1 X140.712 Y77.22 E49.3534
G1 X140.968 Y77.279 E49.36686
G1 X141.915 Y77.279 E49.41536
G1 X142.237 Y77.085 E49.43462
G1 X142.378 Y76.875 E49.44757
G1 X142.437 Y76.619 E49.46103
G1 X142.437 Y73.405 E49.62565
G1 X142.468 Y73.239 E49.6343
G1 X142.468 Y70.239 E49.78796
G1 X142.437 Y70.074 E49.79656
G1 X142.437 Y66.721 E49.96831
G1 X142.243 Y66.399 E49.98756
G1 X142.033 Y66.258 E50.00052
G1 X141.777 Y66.199 E50.01397
G1 X140.83 Y66.199 E50.06248
G1 X140.508 Y66.393 E50.08173
G1 X140.367 Y66.603 E50.09469
G1 X140.308 Y66.859 E50.10815
G1 X140.308 Y67.127 E50.12187
G1 X140.088 Y67.079 E50.13341
G1 X87.543 Y67.079 E52.82479
G1 X87.462 Y67.118 E52.8294
G1 X87.462 Y66.721 E52.84973
G1 X87.268 Y66.399 E52.86899
G1 X87.058 Y66.258 E52.88194
G1 X86.802 Y66.199 E52.8954
G1 X85.375 Y66.199 E52.96849
G1 X85.062 Y66.38 E52.98701
G1 X84.907 Y66.598 E53.00071
G1 X84.846 Y66.852 E53.01409
G1 X84.832 Y68.175 E53.08186
G1 X84.767 Y68.625 E53.10515
G1 X84.681 Y68.965 E53.12311
G1 X84.563 Y69.273 E53.14001
G1 X84.402 Y69.578 E53.15767
G1 X84.104 Y69.967 E53.18277
G1 X83.752 Y70.287 E53.20714
G1 X83.058 Y70.788 E53.25098
G1 X82.784 Y71.227 E53.27749
G1 X82.687 Y71.652 E53.29981
G1 X82.685 Y74.893 E53.46582
G1 X82.724 Y75.075 E53.47535
G1 X82.877 Y75.412 E53.49431
G1 X83.095 Y75.684 E53.51217
G1 X83.647 Y76.132 E53.54858
G1 X83.874 Y76.329 E53.56397
G1 X84.23 Y76.685 E53.58976
G1 X84.441 Y76.993 E53.60889
